;FLAVOR:Marlin
;TIME:3983
;Filament used: 2.73451m
;Layer height: 0.15
;MINX:118.736
;MINY:117.962
;MINZ:0.3
;MAXX:181.23
;MAXY:182.082
;MAXZ:10.65
;Generated with Cura_SteamEngine 5.3.1
M140 S70
M105
M190 S70
M104 S255
M105
M109 S255
M82 ;absolute extrusion mode

M400
G28; HOME GERAL
M400
G29; AUTO NIVELAMENTO
G1 Z10 F12000
M400
G1 X150 Y150
M400
G1 Z0.0
M400
G1 Z10
M400
G27
M400
G92 E0; RESETA EXTRUSOR
G1 E20 F500;
G1 E-5;
G92 E0; RESETA EXTRUSOR
M117 Imprimindo...
M400
G92 E0
G92 E0
G1 F3900 E-4.5
;LAYER_COUNT:70
;LAYER:0
M107
G1 F600 Z0.5
G0 F12000 X145.892 Y121.067 Z0.5
;TYPE:SKIRT
G1 F600 Z0.3
G1 F3900 E0
G1 F2700 X146.655 Y120.27 E0.07156
G1 X147.141 Y119.866 E0.11255
G1 X147.815 Y119.469 E0.16328
G1 X148.278 Y119.256 E0.19634
G1 X149.023 Y119.068 E0.24617
G1 X149.646 Y119.004 E0.28679
G1 X150.328 Y119 E0.33102
G1 X150.837 Y119.037 E0.36412
G1 X151.613 Y119.234 E0.41605
G1 X152.09 Y119.416 E0.44916
G1 X152.596 Y119.697 E0.4867
G1 X153.07 Y120.025 E0.52408
G1 X153.648 Y120.578 E0.57597
G1 X154.046 Y120.983 E0.61279
G1 X154.416 Y121.436 E0.65073
G1 X155.796 Y123.476 E0.81047
G1 X157.406 Y125.724 E0.9898
G1 X159.049 Y127.887 E1.16597
G1 X160.774 Y130.03 E1.34439
G1 X162.536 Y132.095 E1.52045
G1 X164.392 Y134.151 E1.7001
G1 X166.271 Y136.116 E1.87643
G1 X168.215 Y138.038 E2.05373
G1 X170.233 Y139.924 E2.23287
G1 X171.4 Y140.967 E2.33439
G1 X172.31 Y141.767 E2.41297
G1 X173.986 Y143.284 E2.55959
G1 X174.909 Y144.159 E2.64207
G1 X177.389 Y146.429 E2.86013
G1 X177.609 Y146.623 E2.87915
G1 X178.081 Y147.108 E2.92304
G1 X178.51 Y147.741 E2.97264
G1 X179.018 Y148.674 E3.04154
G1 X179.348 Y149.327 E3.08899
G1 X179.548 Y149.819 E3.12344
G1 X179.771 Y150.532 E3.17189
G1 X180.075 Y151.593 E3.24347
G1 X180.177 Y152.093 E3.27657
G1 X180.194 Y152.951 E3.33223
G1 X180.145 Y153.459 E3.36533
G1 X179.915 Y154.231 E3.41757
G1 X179.326 Y155.542 E3.51079
G1 X178.283 Y158.05 E3.68695
G1 X177.294 Y160.636 E3.86652
G1 X176.389 Y163.212 E4.0436
G1 X176.167 Y163.897 E4.09031
G1 X175.837 Y164.871 E4.15701
G1 X175.64 Y165.403 E4.1938
G1 X174.992 Y167.085 E4.3107
G1 X174.797 Y167.632 E4.34837
G1 X174.551 Y168.28 E4.39332
G1 X173.973 Y169.688 E4.49204
G1 X171.179 Y176.75 E4.9846
G1 X170.903 Y177.284 E5.02359
G1 X170.6 Y177.695 E5.05671
G1 X170.026 Y178.223 E5.10729
G1 X169.254 Y178.753 E5.16802
G1 X168.614 Y179.174 E5.21771
G1 X168.101 Y179.456 E5.25567
G1 X166.853 Y179.895 E5.34148
G1 X164.61 Y180.557 E5.49316
G1 X163.545 Y180.886 E5.56545
G1 X162.915 Y181.028 E5.60734
G1 X161.675 Y181.042 E5.68776
G1 X160.747 Y181.027 E5.74796
G1 X159.982 Y180.979 E5.79767
G1 X158.975 Y180.885 E5.86327
G1 X156.232 Y180.669 E6.04172
G1 X153.482 Y180.53 E6.22031
G1 X150.768 Y180.469 E6.39637
G1 X148.021 Y180.486 E6.57454
G1 X145.305 Y180.58 E6.7508
G1 X142.55 Y180.753 E6.92983
G1 X141.207 Y180.874 E7.01729
G1 X141.124 Y180.875 E7.02267
G1 X139.708 Y181.001 E7.11487
G1 X138.813 Y181.039 E7.17297
G1 X138.075 Y181.042 E7.22084
G1 X137.36 Y181.03 E7.26722
G1 X136.852 Y180.981 E7.30032
G1 X136.442 Y180.888 E7.32758
G1 X134.127 Y180.181 E7.48457
G1 X132.854 Y179.805 E7.57066
G1 X131.974 Y179.471 E7.63171
G1 X131.338 Y179.144 E7.67809
G1 X130.663 Y178.697 E7.7306
G1 X129.989 Y178.225 E7.78397
G1 X129.595 Y177.9 E7.81709
G1 X129.257 Y177.518 E7.85017
G1 X128.937 Y177.015 E7.88884
G1 X128.617 Y176.246 E7.94286
G1 X126.477 Y170.818 E8.32128
G1 X125.842 Y169.228 E8.43232
G1 X125.498 Y168.332 E8.49457
G1 X125.232 Y167.61 E8.54447
G1 X124.137 Y164.786 E8.74092
G1 X123.659 Y163.354 E8.83883
G1 X122.732 Y160.739 E9.01877
G1 X121.738 Y158.167 E9.19761
G1 X120.393 Y154.996 E9.42101
G1 X120.171 Y154.499 E9.45631
G1 X119.899 Y153.654 E9.51389
G1 X119.802 Y153.153 E9.54698
G1 X119.78 Y152.446 E9.59286
G1 X119.923 Y151.596 E9.64876
G1 X120.238 Y150.502 E9.7226
G1 X120.449 Y149.827 E9.76847
G1 X120.656 Y149.321 E9.80392
G1 X121.135 Y148.382 E9.87229
G1 X121.47 Y147.764 E9.91788
G1 X121.864 Y147.193 E9.96288
G1 X122.374 Y146.642 E10.01157
G1 X123.498 Y145.634 E10.10949
G1 X125.768 Y143.518 E10.31076
G1 X126.099 Y143.201 E10.34049
G1 X127.864 Y141.61 E10.4946
G1 X128.332 Y141.201 E10.53491
G1 X130.371 Y139.364 E10.71291
G1 X132.482 Y137.357 E10.90183
G1 X134.428 Y135.393 E11.08115
G1 X136.284 Y133.413 E11.25716
G1 X138.106 Y131.353 E11.43553
G1 X139.85 Y129.267 E11.61188
G1 X141.55 Y127.113 E11.78985
G1 X143.179 Y124.925 E11.96676
G1 X145.326 Y121.828 E12.21117
G1 X145.528 Y121.523 E12.2349
G1 X145.892 Y121.067 E12.27274
G0 F12000 X145.516 Y120.707
G1 F2700 X146.279 Y119.91 E12.3443
G1 X146.841 Y119.439 E12.39186
G1 X147.551 Y119.021 E12.4453
G1 X148.105 Y118.764 E12.48491
G1 X148.933 Y118.555 E12.54029
G1 X149.643 Y118.484 E12.58657
G1 X150.366 Y118.481 E12.63346
G1 X150.918 Y118.521 E12.66936
G1 X151.741 Y118.73 E12.72443
G1 X152.342 Y118.961 E12.76619
G1 X152.892 Y119.269 E12.80707
G1 X153.397 Y119.619 E12.84692
G1 X154.019 Y120.214 E12.90275
G1 X154.449 Y120.654 E12.94265
G1 X154.819 Y121.107 E12.98059
G1 X156.219 Y123.173 E13.14245
G1 X157.82 Y125.409 E13.32081
G1 X159.463 Y127.572 E13.49698
G1 X161.17 Y129.692 E13.67351
G1 X162.931 Y131.757 E13.84953
G1 X164.768 Y133.792 E14.02733
G1 X166.637 Y135.746 E14.2027
G1 X168.581 Y137.668 E14.38
G1 X170.58 Y139.536 E14.55745
G1 X171.747 Y140.579 E14.65896
G1 X172.659 Y141.381 E14.73773
G1 X174.344 Y142.907 E14.88517
G1 X175.26 Y143.775 E14.96701
G1 X177.982 Y146.26 E15.20606
G1 X178.484 Y146.775 E15.2527
G1 X178.967 Y147.492 E15.30877
G1 X179.482 Y148.439 E15.37869
G1 X179.83 Y149.131 E15.42893
G1 X180.03 Y149.623 E15.46337
G1 X180.271 Y150.389 E15.51545
G1 X180.585 Y151.489 E15.58965
G1 X180.696 Y152.034 E15.62572
G1 X180.712 Y153.001 E15.68844
G1 X180.658 Y153.556 E15.72461
G1 X180.389 Y154.444 E15.78479
G1 X179.806 Y155.742 E15.87707
G1 X178.769 Y158.236 E16.05225
G1 X177.78 Y160.822 E16.23182
G1 X176.88 Y163.384 E16.40794
G1 X176.66 Y164.064 E16.45429
G1 X176.325 Y165.052 E16.52196
G1 X176.125 Y165.59 E16.55918
G1 X175.482 Y167.26 E16.67525
G1 X175.283 Y167.817 E16.71361
G1 X175.032 Y168.477 E16.7594
G1 X174.457 Y169.879 E16.85768
G1 X171.663 Y176.941 E17.35025
G1 X171.345 Y177.561 E17.39544
G1 X170.991 Y178.042 E17.43418
G1 X170.378 Y178.606 E17.4882
G1 X169.54 Y179.187 E17.55434
G1 X168.864 Y179.63 E17.60676
G1 X168.311 Y179.934 E17.64769
G1 X167.026 Y180.386 E17.73603
G1 X164.757 Y181.056 E17.88948
G1 X163.698 Y181.383 E17.96136
G1 X162.974 Y181.547 E18.00951
G1 X161.667 Y181.562 E18.09428
G1 X160.714 Y181.546 E18.1561
G1 X159.934 Y181.497 E18.20679
G1 X158.927 Y181.402 E18.27239
G1 X156.2 Y181.188 E18.4498
G1 X153.47 Y181.05 E18.62708
G1 X150.759 Y180.989 E18.80296
G1 X148.039 Y181.006 E18.97937
G1 X145.323 Y181.1 E19.15563
G1 X142.593 Y181.271 E19.33304
G1 X141.254 Y181.392 E19.42023
G1 X141.15 Y181.395 E19.42698
G1 X139.73 Y181.521 E19.51944
G1 X138.815 Y181.559 E19.57884
G1 X138.066 Y181.562 E19.62741
G1 X137.31 Y181.548 E19.67646
G1 X136.802 Y181.499 E19.70956
G1 X136.327 Y181.395 E19.74109
G1 X133.98 Y180.68 E19.90022
G1 X132.707 Y180.304 E19.98631
G1 X131.789 Y179.957 E20.04996
G1 X131.051 Y179.578 E20.10377
G1 X130.365 Y179.123 E20.15716
G1 X129.658 Y178.626 E20.21321
G1 X129.233 Y178.275 E20.24896
G1 X128.84 Y177.831 E20.28741
G1 X128.475 Y177.257 E20.33153
G1 X128.133 Y176.437 E20.38915
G1 X125.993 Y171.009 E20.76757
G1 X125.357 Y169.414 E20.87894
G1 X125.01 Y168.512 E20.94162
G1 X124.744 Y167.79 E20.99152
G1 X123.644 Y164.951 E21.18899
G1 X123.166 Y163.519 E21.2869
G1 X122.242 Y160.913 E21.46623
G1 X121.259 Y158.37 E21.64306
G1 X119.914 Y155.199 E21.86646
G1 X119.696 Y154.711 E21.90112
G1 X119.388 Y153.753 E21.96639
G1 X119.283 Y153.213 E22.00206
G1 X119.258 Y152.41 E22.05417
G1 X119.423 Y151.452 E22.11722
G1 X119.742 Y150.347 E22.19181
G1 X119.968 Y149.63 E22.24057
G1 X120.175 Y149.124 E22.27603
G1 X120.678 Y148.134 E22.34805
G1 X121.013 Y147.516 E22.39364
G1 X121.482 Y146.84 E22.447
G1 X121.992 Y146.289 E22.4957
G1 X123.151 Y145.247 E22.59678
G1 X125.408 Y143.142 E22.79695
G1 X125.739 Y142.825 E22.82667
G1 X127.522 Y141.218 E22.98235
G1 X127.99 Y140.809 E23.02266
G1 X130.013 Y138.987 E23.19924
G1 X132.124 Y136.98 E23.38815
G1 X134.049 Y135.037 E23.56555
G1 X135.894 Y133.068 E23.74055
G1 X137.716 Y131.008 E23.91892
G1 X139.451 Y128.933 E24.09434
G1 X141.133 Y126.802 E24.27042
G1 X142.762 Y124.614 E24.44734
G1 X144.892 Y121.541 E24.68984
G1 X145.094 Y121.236 E24.71357
G1 X145.516 Y120.707 E24.75746
G0 F12000 X145.14 Y120.347
G1 F2700 X145.903 Y119.55 E24.82902
G1 X146.538 Y119.014 E24.88291
G1 X147.332 Y118.549 E24.94259
G1 X147.928 Y118.273 E24.98519
G1 X148.843 Y118.042 E25.04639
G1 X149.641 Y117.964 E25.0984
G1 X150.404 Y117.962 E25.14788
G1 X150.999 Y118.005 E25.18657
G1 X151.869 Y118.226 E25.24479
G1 X152.596 Y118.507 E25.29534
G1 X153.146 Y118.815 E25.33623
G1 X153.728 Y119.216 E25.38207
G1 X154.391 Y119.851 E25.44161
G1 X154.852 Y120.325 E25.48449
G1 X155.222 Y120.778 E25.52243
G1 X156.642 Y122.87 E25.68641
G1 X158.234 Y125.094 E25.8638
G1 X159.877 Y127.257 E26.03997
G1 X161.566 Y129.355 E26.21466
G1 X163.327 Y131.42 E26.39067
G1 X165.144 Y133.433 E26.56655
G1 X167.003 Y135.376 E26.74096
G1 X168.947 Y137.298 E26.91826
G1 X170.927 Y139.148 E27.09401
G1 X172.093 Y140.192 E27.19552
G1 X173.008 Y140.996 E27.27451
G1 X174.702 Y142.53 E27.42274
G1 X175.611 Y143.391 E27.50394
G1 X178.333 Y145.876 E27.74298
G1 X178.89 Y146.447 E27.79472
G1 X179.398 Y147.201 E27.85369
G1 X179.947 Y148.205 E27.9279
G1 X180.295 Y148.897 E27.97814
G1 X180.512 Y149.427 E28.01528
G1 X180.771 Y150.246 E28.07099
G1 X181.095 Y151.385 E28.1478
G1 X181.215 Y151.976 E28.18691
G1 X181.23 Y153.051 E28.25664
G1 X181.171 Y153.658 E28.29619
G1 X180.887 Y154.595 E28.35969
G1 X180.286 Y155.942 E28.45536
G1 X179.255 Y158.422 E28.62955
G1 X178.266 Y161.008 E28.80912
G1 X177.371 Y163.556 E28.98427
G1 X177.152 Y164.231 E29.0303
G1 X176.812 Y165.233 E29.09892
G1 X176.61 Y165.777 E29.13656
G1 X175.972 Y167.435 E29.25178
G1 X175.769 Y168.002 E29.29084
G1 X175.513 Y168.674 E29.33748
G1 X174.941 Y170.07 E29.43533
G1 X172.147 Y177.132 E29.92789
G1 X171.789 Y177.834 E29.979
G1 X171.38 Y178.391 E30.02382
G1 X170.73 Y178.989 E30.0811
G1 X169.825 Y179.622 E30.15273
G1 X169.115 Y180.086 E30.20774
G1 X168.524 Y180.411 E30.25149
G1 X167.199 Y180.877 E30.34258
G1 X164.904 Y181.555 E30.49779
G1 X163.851 Y181.88 E30.56926
G1 X163.035 Y182.066 E30.62354
G1 X161.658 Y182.082 E30.71286
G1 X160.681 Y182.065 E30.77623
G1 X159.885 Y182.015 E30.82796
G1 X158.878 Y181.919 E30.89357
G1 X156.168 Y181.707 E31.06987
G1 X153.458 Y181.57 E31.24586
G1 X150.75 Y181.509 E31.42153
G1 X148.057 Y181.526 E31.5962
G1 X145.341 Y181.62 E31.77246
G1 X142.636 Y181.789 E31.94824
G1 X139.752 Y182.041 E32.136
G1 X138.837 Y182.079 E32.19539
G1 X138.056 Y182.082 E32.24605
G1 X137.26 Y182.066 E32.29768
G1 X136.752 Y182.017 E32.33078
G1 X136.216 Y181.903 E32.36633
G1 X133.833 Y181.179 E32.52786
G1 X132.56 Y180.803 E32.61395
G1 X131.551 Y180.42 E32.68394
G1 X130.813 Y180.041 E32.73775
G1 X130.066 Y179.548 E32.7958
G1 X129.327 Y179.027 E32.85444
G1 X128.871 Y178.65 E32.89282
G1 X128.423 Y178.144 E32.93665
G1 X128.013 Y177.499 E32.98622
G1 X127.649 Y176.628 E33.04744
G1 X124.872 Y169.601 E33.53749
G1 X124.522 Y168.692 E33.60067
G1 X124.256 Y167.97 E33.65057
G1 X123.151 Y165.116 E33.84906
G1 X122.673 Y163.684 E33.94698
G1 X121.752 Y161.087 E34.12569
G1 X120.78 Y158.573 E34.3005
G1 X119.435 Y155.402 E34.5239
G1 X119.221 Y154.923 E34.55793
G1 X118.893 Y153.912 E34.62686
G1 X118.764 Y153.268 E34.66946
G1 X118.736 Y152.377 E34.72728
G1 X118.923 Y151.308 E34.79766
G1 X119.246 Y150.191 E34.87307
G1 X119.472 Y149.474 E34.92183
G1 X119.711 Y148.888 E34.96288
G1 X120.221 Y147.886 E35.0358
G1 X120.556 Y147.268 E35.08139
G1 X121.1 Y146.487 E35.14312
G1 X121.644 Y145.902 E35.19493
G1 X122.803 Y144.86 E35.29602
G1 X125.048 Y142.766 E35.49513
G1 X125.379 Y142.449 E35.52485
G1 X127.18 Y140.826 E35.68209
G1 X127.648 Y140.417 E35.7224
G1 X129.655 Y138.61 E35.89756
G1 X131.766 Y136.603 E36.08647
G1 X133.67 Y134.681 E36.26194
G1 X135.504 Y132.723 E36.43594
G1 X137.326 Y130.663 E36.6143
G1 X139.052 Y128.599 E36.78881
G1 X140.716 Y126.491 E36.96299
G1 X142.345 Y124.303 E37.13991
G1 X144.458 Y121.254 E37.3805
G1 X144.687 Y120.912 E37.4072
G1 X145.14 Y120.347 E37.45416
G1 F3900 E32.95416
G1 F600 Z0.5
G0 F12000 X148.473 Y123.434 Z0.5
G1 F600 Z0.3
G1 F3900 E37.45416
G1 F2700 X149.174 Y122.729 E37.51865
G1 X149.485 Y122.556 E37.54173
G1 X149.716 Y122.509 E37.55702
G1 X150.306 Y122.511 E37.59528
G1 X150.64 Y122.607 E37.61782
G1 X150.791 Y122.7 E37.62932
G1 X151.52 Y123.42 E37.69578
G1 X151.712 Y123.743 E37.72015
G1 X151.84 Y124.15 E37.74782
G1 X151.859 Y124.3 E37.75763
G1 X151.807 Y125.216 E37.81713
G1 X151.813 Y125.285 E37.82162
G1 X151.94 Y125.88 E37.86108
G1 X151.981 Y125.976 E37.86785
G1 X152.038 Y126.056 E37.87422
G1 X152.036 Y126.068 E37.87501
G1 X152.077 Y126.175 E37.88244
G1 X152.241 Y126.419 E37.90151
G1 X152.282 Y126.546 E37.91017
G1 X152.323 Y126.624 E37.91588
G1 X152.368 Y126.683 E37.92069
G1 X152.367 Y126.691 E37.92122
G1 X152.4 Y126.781 E37.92743
G1 X152.705 Y127.287 E37.96575
G1 X152.744 Y127.407 E37.97394
G1 X152.906 Y127.661 E37.99348
G1 X152.944 Y127.779 E38.00152
G1 X152.981 Y127.852 E38.00682
G1 X153.035 Y127.926 E38.01277
G1 X153.034 Y127.933 E38.01322
G1 X153.068 Y128.029 E38.01983
G1 X153.37 Y128.532 E38.05788
G1 X153.368 Y128.542 E38.05854
G1 X153.407 Y128.648 E38.06587
G1 X153.537 Y128.85 E38.08145
G1 X153.535 Y128.864 E38.08237
G1 X153.568 Y128.958 E38.08883
G1 X154.078 Y129.817 E38.15362
G1 X154.396 Y130.487 E38.20172
G1 X154.436 Y130.548 E38.20645
G1 X154.83 Y130.995 E38.2451
G1 X154.95 Y131.072 E38.25434
G1 X154.994 Y131.073 E38.2572
G1 X155.995 Y132.086 E38.34956
G1 X156.119 Y132.156 E38.3588
G1 X156.2 Y132.153 E38.36406
G1 X157.182 Y133.143 E38.45449
G1 X157.307 Y133.213 E38.46379
G1 X157.388 Y133.21 E38.46904
G1 X158.365 Y134.195 E38.55902
G1 X158.49 Y134.265 E38.56831
G1 X158.571 Y134.262 E38.57357
G1 X159.552 Y135.252 E38.66396
G1 X159.677 Y135.322 E38.67326
G1 X159.758 Y135.319 E38.67851
G1 X160.738 Y136.308 E38.76881
G1 X160.863 Y136.378 E38.77811
G1 X160.944 Y136.375 E38.78336
G1 X161.92 Y137.359 E38.87325
G1 X162.045 Y137.429 E38.88254
G1 X162.126 Y137.426 E38.8878
G1 X163.108 Y138.417 E38.97829
G1 X163.233 Y138.487 E38.98758
G1 X163.314 Y138.484 E38.99283
G1 X164.293 Y139.472 E39.08304
G1 X164.418 Y139.542 E39.09234
G1 X164.499 Y139.539 E39.09759
G1 X165.479 Y140.528 E39.18789
G1 X165.604 Y140.598 E39.19719
G1 X165.685 Y140.595 E39.20244
G1 X166.661 Y141.579 E39.29233
G1 X166.786 Y141.649 E39.30162
G1 X166.867 Y141.646 E39.30688
G1 X167.847 Y142.635 E39.39718
G1 X167.972 Y142.705 E39.40647
G1 X168.054 Y142.702 E39.41179
G1 X169.033 Y143.69 E39.502
G1 X169.158 Y143.76 E39.5113
G1 X169.239 Y143.757 E39.51655
G1 X170.219 Y144.745 E39.60681
G1 X170.344 Y144.815 E39.6161
G1 X170.425 Y144.812 E39.62136
G1 X171.478 Y145.878 E39.71854
G1 X171.602 Y145.948 E39.72777
G1 X171.677 Y145.945 E39.73264
G1 X172.933 Y147.26 E39.85058
G1 X172.971 Y147.292 E39.8538
G1 X173.408 Y147.601 E39.88852
G1 X174.115 Y148.45 E39.96017
G1 X174.136 Y148.473 E39.96219
G1 X174.567 Y148.88 E40.00064
G1 X174.625 Y148.921 E40.00525
G1 X175.305 Y149.278 E40.05506
G1 X175.457 Y149.463 E40.07059
G1 X176.205 Y150.889 E40.17502
G1 X176.691 Y152.526 E40.28578
G1 X176.685 Y152.834 E40.30576
G1 X176.602 Y153.002 E40.31791
G1 X176.356 Y153.212 E40.33889
G1 X175.925 Y153.486 E40.37201
G1 X175.89 Y153.512 E40.37484
G1 X175.546 Y153.824 E40.40496
G1 X175.512 Y153.869 E40.40862
