;FLAVOR:Marlin
;TIME:4459
;Filament used: 2.50016m
;Layer height: 0.15
;MINX:122.701
;MINY:124.084
;MINZ:0.3
;MAXX:177.299
;MAXY:176.382
;MAXZ:10.65
;Generated with Cura_SteamEngine 5.3.1
M140 S70
M105
M190 S70
M104 S255
M105
M109 S255
M82 ;absolute extrusion mode

M400
G28; HOME GERAL
M400
G29; AUTO NIVELAMENTO
G1 Z10 F12000
M400
G1 X150 Y150
M400
G1 Z0.0
M400
G1 Z10
M400
G27
M400
G92 E0; RESETA EXTRUSOR
G1 E20 F500;
G1 E-5;
G92 E0; RESETA EXTRUSOR
M117 Imprimindo...
M400
G92 E0
G92 E0
G1 F3900 E-4.5
;LAYER_COUNT:70
;LAYER:0
M107
G1 F600 Z0.5
G0 F12000 X147.259 Y132.618 Z0.5
;TYPE:SKIRT
G1 F600 Z0.3
G1 F3900 E0
G1 F1350 X147.617 Y132.255 E0.03307
G1 X148.028 Y131.952 E0.06618
G1 X148.481 Y131.718 E0.09925
G1 X148.965 Y131.556 E0.13236
G1 X149.908 Y131.435 E0.19402
G1 X150.706 Y131.488 E0.24589
G1 X151.204 Y131.601 E0.27901
G1 X151.678 Y131.79 E0.3121
G1 X152.116 Y132.05 E0.34514
G1 X152.574 Y132.43 E0.38374
G1 X153.281 Y133.263 E0.4546
G1 X161.105 Y142.782 E1.25376
G1 X161.615 Y143.419 E1.30668
G1 X162.103 Y144.067 E1.35929
G1 X162.492 Y144.614 E1.40282
G1 X162.847 Y145.167 E1.44545
G1 X173.233 Y162.742 E2.76947
G1 X173.616 Y163.415 E2.81969
G1 X173.971 Y164.244 E2.87818
G1 X174.129 Y164.976 E2.92675
G1 X174.157 Y165.485 E2.95981
G1 X174.106 Y165.993 E2.99293
G1 X173.856 Y166.821 E3.04902
G1 X173.534 Y167.434 E3.09393
G1 X173.229 Y167.843 E3.12702
G1 X172.864 Y168.2 E3.16013
G1 X172.41 Y168.53 E3.19654
G1 X171.969 Y168.788 E3.22967
G1 X171.407 Y169.007 E3.26879
G1 X170.396 Y169.205 E3.33561
G1 X160.093 Y171.055 E4.01452
G1 X159.398 Y171.169 E4.0602
G1 X158.636 Y171.213 E4.1097
G1 X155.667 Y170.997 E4.30277
G1 X152.92 Y170.875 E4.48111
G1 X150.17 Y170.832 E4.65949
G1 X147.423 Y170.866 E4.83767
G1 X144.728 Y170.975 E5.0126
G1 X141.968 Y171.172 E5.19206
G1 X141.152 Y171.198 E5.24501
G1 X140.498 Y171.159 E5.2875
G1 X129.52 Y169.19 E6.01087
G1 X128.842 Y169.058 E6.05567
G1 X128.35 Y168.921 E6.08879
G1 X127.886 Y168.71 E6.12185
G1 X127.402 Y168.399 E6.15916
G1 X127.002 Y168.082 E6.19227
G1 X126.657 Y167.706 E6.22536
G1 X126.375 Y167.281 E6.25844
G1 X126.111 Y166.713 E6.29907
G1 X125.945 Y166.23 E6.33219
G1 X125.857 Y165.728 E6.36525
G1 X125.848 Y165.218 E6.39833
G1 X125.978 Y164.486 E6.44655
G1 X126.081 Y164.14 E6.46996
G1 X126.366 Y163.467 E6.51736
G1 X126.918 Y162.491 E6.59008
G1 X137.009 Y145.412 E7.87668
G1 X137.558 Y144.524 E7.94439
G1 X138.407 Y143.391 E8.03622
G1 X138.847 Y142.838 E8.08205
G1 X146.807 Y133.154 E8.89508
G1 X147.259 Y132.618 E8.94055
G0 F12000 X146.861 Y132.283
G1 F1350 X147.308 Y131.836 E8.98155
G1 X147.75 Y131.51 E9.01717
G1 X148.276 Y131.238 E9.05558
G1 X148.85 Y131.046 E9.09483
G1 X149.892 Y130.913 E9.16296
G1 X150.78 Y130.972 E9.22068
G1 X151.36 Y131.103 E9.25925
G1 X151.906 Y131.321 E9.29738
G1 X152.417 Y131.625 E9.33594
G1 X152.938 Y132.057 E9.37984
G1 X153.683 Y132.933 E9.45442
G1 X161.511 Y142.457 E10.25399
G1 X162.03 Y143.106 E10.30789
G1 X162.527 Y143.766 E10.36147
G1 X162.93 Y144.333 E10.40659
G1 X163.295 Y144.902 E10.45043
G1 X173.685 Y162.485 E11.77504
G1 X174.094 Y163.21 E11.82903
G1 X174.468 Y164.084 E11.89068
G1 X174.646 Y164.907 E11.9453
G1 X174.678 Y165.495 E11.98349
G1 X174.618 Y166.097 E12.02273
G1 X174.34 Y167.017 E12.08506
G1 X173.974 Y167.714 E12.13612
G1 X173.619 Y168.19 E12.17463
G1 X173.17 Y168.621 E12.215
G1 X172.716 Y168.951 E12.2514
G1 X172.196 Y169.258 E12.29056
G1 X171.557 Y169.507 E12.33504
G1 X170.488 Y169.717 E12.4057
G1 X160.177 Y171.568 E13.08513
G1 X159.428 Y171.688 E13.13433
G1 X158.598 Y171.732 E13.18824
G1 X155.629 Y171.515 E13.38131
G1 X152.912 Y171.395 E13.5577
G1 X150.168 Y171.352 E13.73569
G1 X147.444 Y171.386 E13.91238
G1 X144.754 Y171.495 E14.08699
G1 X141.985 Y171.692 E14.26703
G1 X141.169 Y171.718 E14.31998
G1 X140.406 Y171.671 E14.36956
G1 X129.421 Y169.7 E15.09339
G1 X128.703 Y169.559 E15.14085
G1 X128.171 Y169.411 E15.17667
G1 X127.605 Y169.147 E15.21717
G1 X127.079 Y168.807 E15.25779
G1 X126.647 Y168.465 E15.29353
G1 X126.245 Y168.026 E15.33213
G1 X125.903 Y167.5 E15.37283
G1 X125.639 Y166.932 E15.41345
G1 X125.441 Y166.364 E15.45246
G1 X125.338 Y165.776 E15.49118
G1 X125.327 Y165.177 E15.53004
G1 X125.466 Y164.395 E15.58155
G1 X125.602 Y163.937 E15.61254
G1 X125.913 Y163.211 E15.66376
G1 X126.47 Y162.226 E15.73715
G1 X136.561 Y145.147 E17.02375
G1 X137.142 Y144.212 E17.09514
G1 X138 Y143.067 E17.18794
G1 X138.445 Y142.508 E17.23428
G1 X146.409 Y132.819 E18.04772
G1 X146.861 Y132.283 E18.0932
G0 F12000 X146.493 Y131.915
G1 F1350 X146.94 Y131.468 E18.1342
G1 X147.474 Y131.067 E18.17751
G1 X148.071 Y130.758 E18.22111
G1 X148.735 Y130.536 E18.26652
G1 X149.876 Y130.391 E18.34111
G1 X150.853 Y130.456 E18.40462
G1 X151.516 Y130.605 E18.44869
G1 X152.137 Y130.853 E18.49206
G1 X152.716 Y131.198 E18.53577
G1 X153.305 Y131.686 E18.58538
G1 X154.085 Y132.603 E18.66346
G1 X161.917 Y142.132 E19.46345
G1 X162.445 Y142.793 E19.51832
G1 X162.951 Y143.465 E19.57288
G1 X163.368 Y144.052 E19.61958
G1 X163.743 Y144.637 E19.66464
G1 X174.138 Y162.23 E20.98997
G1 X174.572 Y163.005 E21.04758
G1 X174.965 Y163.924 E21.11241
G1 X175.163 Y164.837 E21.173
G1 X175.199 Y165.506 E21.21645
G1 X175.13 Y166.201 E21.26175
G1 X174.824 Y167.213 E21.33032
G1 X174.414 Y167.994 E21.38753
G1 X174.011 Y168.535 E21.43128
G1 X173.476 Y169.042 E21.47908
G1 X173.022 Y169.372 E21.51549
G1 X172.422 Y169.729 E21.56077
G1 X171.707 Y170.007 E21.61052
G1 X170.58 Y170.229 E21.68502
G1 X160.259 Y172.081 E22.3651
G1 X159.456 Y172.207 E22.41782
G1 X158.56 Y172.251 E22.476
G1 X155.591 Y172.033 E22.66908
G1 X152.904 Y171.915 E22.84352
G1 X150.166 Y171.872 E23.02112
G1 X147.465 Y171.906 E23.19632
G1 X144.78 Y172.015 E23.3706
G1 X142.002 Y172.212 E23.55123
G1 X141.186 Y172.238 E23.60418
G1 X140.314 Y172.183 E23.66085
G1 X129.321 Y170.21 E24.38522
G1 X128.564 Y170.06 E24.43527
G1 X127.989 Y169.9 E24.47398
G1 X127.323 Y169.584 E24.52179
G1 X126.756 Y169.215 E24.56566
G1 X126.292 Y168.848 E24.60403
G1 X125.833 Y168.346 E24.64815
G1 X125.431 Y167.719 E24.69645
G1 X125.167 Y167.151 E24.73708
G1 X124.936 Y166.496 E24.78212
G1 X124.819 Y165.824 E24.82636
G1 X124.806 Y165.136 E24.87099
G1 X124.954 Y164.304 E24.9258
G1 X125.124 Y163.732 E24.9645
G1 X125.46 Y162.955 E25.01941
G1 X126.022 Y161.961 E25.09347
G1 X136.119 Y144.873 E26.38076
G1 X136.726 Y143.9 E26.45514
G1 X137.593 Y142.743 E26.54891
G1 X138.043 Y142.178 E26.59576
G1 X146.011 Y132.484 E27.40962
G1 X146.493 Y131.915 E27.45798
G1 F3900 E22.95798
G1 F600 Z0.5
;MESH:heart.stl
G0 F12000 X130.855 Y164.797 Z0.5
;TYPE:WALL-INNER
G1 F600 Z0.3
G1 F3900 E27.45798
G1 F1350 X141.037 Y166.623 E28.12889
G1 X149.647 Y163.128 E28.73157
G1 X150.027 Y163.088 E28.75635
G1 X150.395 Y163.148 E28.78053
G1 X158.967 Y166.624 E29.38046
G1 X169.148 Y164.796 E30.05133
G1 X158.772 Y147.236 E31.37419
G1 X158.002 Y146.19 E31.45843
G1 X150 Y136.456 E32.27569
G1 X141.997 Y146.191 E33.09304
G1 X141.229 Y147.236 E33.17715
G1 X130.855 Y164.797 E34.5
G0 F12000 X130.027 Y165.176
G1 F1350 X141.138 Y167.17 E35.23214
G1 X141.307 Y167.075 E35.24471
G1 X149.763 Y163.644 E35.83657
G1 X150.017 Y163.608 E35.85321
G1 X150.237 Y163.644 E35.86767
G1 X158.692 Y167.074 E36.45944
G1 X158.853 Y167.173 E36.4717
G1 X169.976 Y165.176 E37.20464
G1 X159.206 Y146.949 E38.57774
G1 X158.413 Y145.871 E38.66454
G1 X150 Y135.637 E39.52378
G1 X141.586 Y145.872 E40.38311
G1 X140.794 Y146.949 E40.46981
G1 X130.027 Y165.176 E41.84281
G0 F12000 X129.427 Y165.531
;TYPE:WALL-OUTER
G1 F1350 X129.556 Y165.62 E41.85298
G1 X141.097 Y167.691 E42.61345
G1 X141.328 Y167.689 E42.62843
G1 X141.503 Y167.557 E42.64265
G1 X149.94 Y164.134 E43.23317
G1 X150.061 Y164.134 E43.24102
G1 X158.496 Y167.556 E43.8314
G1 X158.676 Y167.693 E43.84607
G1 X158.856 Y167.7 E43.85775
G1 X170.445 Y165.619 E44.6214
G1 X170.574 Y165.53 E44.63157
G1 X170.632 Y165.397 E44.64098
G1 X170.551 Y165.128 E44.6592
G1 X159.64 Y146.662 E46.0503
G1 X158.823 Y145.551 E46.13974
G1 X150.121 Y134.965 E47.02852
G1 X149.879 Y134.965 E47.04421
G1 X141.176 Y145.552 E47.93308
G1 X140.36 Y146.662 E48.02243
G1 X129.45 Y165.129 E49.41355
G1 X129.369 Y165.397 E49.43171
G1 X129.427 Y165.531 E49.44118
G1 F3900 E44.94118
G0 F12000 X130.146 Y165.121
G0 X131.647 Y164.435
;TYPE:SKIN
G1 F3900 E49.44118
G1 F1350 X141.647 Y147.507 E50.71634
G1 X142.388 Y146.499 E50.79748
G1 X150 Y137.239 E51.57493
G1 X157.611 Y146.498 E52.35229
G1 X158.353 Y147.507 E52.43352
G1 X168.356 Y164.434 E53.70873
G1 X159.02 Y166.111 E54.32393
G1 X150.498 Y162.652 E54.92043
G1 X150.035 Y162.592 E54.95071
G1 X149.525 Y162.645 E54.98397
G1 X140.982 Y166.11 E55.58189
G1 X131.647 Y164.435 E56.197
G0 F12000 X132.475 Y164.054
G1 F1350 X133.319 Y164.205 E56.25261
G1 X132.731 Y163.618 E56.30649
G1 X133.005 Y163.156 E56.34133
G1 X134.215 Y164.366 E56.45231
G1 X135.111 Y164.527 E56.51136
G1 X133.278 Y162.693 E56.67953
G1 X133.551 Y162.231 E56.71433
G1 X136.007 Y164.687 E56.9396
G1 X136.904 Y164.849 E56.99872
G1 X133.824 Y161.769 E57.28122
G1 X134.097 Y161.306 E57.31608
G1 X137.8 Y165.009 E57.65573
G1 X138.696 Y165.17 E57.71477
G1 X134.37 Y160.844 E58.11156
G1 X134.643 Y160.382 E58.14637
G1 X139.592 Y165.331 E58.6003
G1 X140.489 Y165.492 E58.65941
G1 X134.916 Y159.919 E59.17057
G1 X135.189 Y159.457 E59.20538
G1 X141.193 Y165.461 E59.75608
G1 X141.716 Y165.249 E59.79268
G1 X135.463 Y158.995 E60.36626
G1 X135.736 Y158.533 E60.40107
G1 X142.24 Y165.037 E60.99763
G1 X142.763 Y164.825 E61.03423
G1 X136.009 Y158.07 E61.65376
G1 X136.282 Y157.608 E61.68857
G1 X143.286 Y164.613 E62.33104
G1 X143.809 Y164.4 E62.36766
G1 X136.555 Y157.145 E63.03306
G1 X136.828 Y156.684 E63.06781
G1 X144.332 Y164.188 E63.75609
G1 X144.855 Y163.975 E63.79271
G1 X137.101 Y156.221 E64.50393
G1 X137.374 Y155.759 E64.53873
G1 X145.379 Y163.763 E65.27292
G1 X145.901 Y163.55 E65.30949
G1 X137.647 Y155.296 E66.06656
G1 X137.92 Y154.834 E66.10136
G1 X146.424 Y163.338 E66.88137
G1 X146.948 Y163.126 E66.91803
G1 X138.194 Y154.372 E67.72096
G1 X138.467 Y153.91 E67.75577
G1 X147.471 Y162.914 E68.58163
G1 X147.994 Y162.702 E68.61823
G1 X138.74 Y153.447 E69.46708
G1 X139.012 Y152.985 E69.50185
G1 X148.517 Y162.489 E70.37362
G1 X149.04 Y162.277 E70.41022
G1 X139.285 Y152.522 E71.30497
G1 X139.559 Y152.061 E71.33975
G1 X149.611 Y162.113 E72.26174
G1 X150.038 Y162.068 E72.28959
G1 X150.342 Y162.109 E72.30948
G1 X139.832 Y151.598 E73.27353
G1 X140.105 Y151.136 E73.30833
G1 X151.444 Y162.475 E74.34837
G1 X152.682 Y162.978 E74.43504
G1 X140.378 Y150.673 E75.56363
G1 X140.652 Y150.212 E75.59841
G1 X153.92 Y163.48 E76.81538
G1 X155.157 Y163.982 E76.90196
G1 X140.924 Y149.749 E78.20744
G1 X141.197 Y149.287 E78.24225
G1 X156.395 Y164.484 E79.63619
G1 X157.633 Y164.987 E79.72286
G1 X141.47 Y148.824 E81.20536
G1 X141.743 Y148.362 E81.24017
G1 X158.87 Y165.489 E82.81109
G1 X159.075 Y165.572 E82.82543
G1 X159.595 Y165.478 E82.85971
G1 X142.017 Y147.9 E84.472
G1 X142.32 Y147.467 E84.50627
G1 X160.219 Y165.366 E86.148
G1 X160.842 Y165.254 E86.18906
G1 X142.631 Y147.044 E87.85936
G1 X142.952 Y146.629 E87.89339
G1 X161.465 Y165.142 E89.59144
G1 X162.089 Y165.03 E89.63256
G1 X143.284 Y146.226 E91.35734
G1 X143.616 Y145.822 E91.39126
G1 X162.712 Y164.918 E93.14278
G1 X163.336 Y164.806 E93.1839
G1 X143.947 Y145.418 E94.96225
G1 X144.279 Y145.014 E94.99617
G1 X163.958 Y164.694 E96.80121
G1 X164.582 Y164.582 E96.84233
G1 X144.611 Y144.611 E98.67411
G1 X144.943 Y144.208 E98.70797
G1 X165.205 Y164.47 E100.56645
G1 X165.829 Y164.358 E100.60756
G1 X145.275 Y143.804 E102.49282
G1 X145.606 Y143.4 E102.52669
G1 X166.452 Y164.246 E104.43873
G1 X167.075 Y164.134 E104.47978
G1 X145.938 Y142.996 E106.41856
G1 X146.269 Y142.593 E106.45238
G1 X167.232 Y163.555 E108.3751
G1 X166.17 Y161.758 E108.51048
G1 X146.602 Y142.189 E110.30535
G1 X146.933 Y141.786 E110.33917
G1 X165.108 Y159.96 E112.00617
G1 X164.045 Y158.162 E112.14164
G1 X147.265 Y141.382 E113.68074
G1 X147.597 Y140.978 E113.71465
G1 X162.983 Y156.365 E115.12593
G1 X161.921 Y154.567 E115.26137
G1 X147.928 Y140.574 E116.54483
G1 X148.261 Y140.171 E116.57874
G1 X160.859 Y152.769 E117.73425
G1 X159.796 Y150.972 E117.86967
G1 X148.592 Y139.768 E118.89732
G1 X148.924 Y139.364 E118.93124
G1 X158.734 Y149.174 E119.83103
G1 X157.916 Y147.79 E119.9353
G1 X157.445 Y147.149 E119.98689
G1 X149.256 Y138.96 E120.738
G1 X149.587 Y138.556 E120.77187
G1 X154.206 Y143.175 E121.19554
G1 X150.809 Y139.043 E121.54247
G1 X149.92 Y138.153 E121.62405
G1 X149.999 Y138.057 E121.63212
G1 F3900 E117.13212
;MESH:NONMESH
G0 F600 X149.999 Y138.057 Z0.45
G0 F12000 X130.146 Y165.121
G0 X129.868 Y165.295
;TIME_ELAPSED:94.738958
;LAYER:1
M106 S114.8
;TYPE:WALL-INNER
;MESH:heart.stl
G1 F3900 E121.63212
G1 F3375 X130.039 Y165.412 E121.63728
G1 X140.893 Y167.364 E121.91238
G1 X141.178 Y167.351 E121.9195
G1 X141.63 Y167.033 E121.93328
G1 X149.704 Y163.759 E122.15062
G1 X150.06 Y163.716 E122.15956
G1 X150.296 Y163.759 E122.16555
G1 X158.367 Y167.032 E122.38281
G1 X158.82 Y167.351 E122.39663
G1 X159.111 Y167.363 E122.40389
G1 X169.964 Y165.413 E122.67896
G1 X170.131 Y165.296 E122.68404
G1 X170.189 Y165.158 E122.68778
G1 X170.052 Y164.684 E122.70008
G1 X159.659 Y147.098 E123.20965
G1 X157.628 Y144.331 E123.29527
G1 X150.141 Y135.225 E123.58934
G1 X149.859 Y135.225 E123.59638
G1 X142.371 Y144.332 E123.89048
G1 X140.341 Y147.098 E123.97607
G1 X129.947 Y164.691 E124.4858
G1 X129.811 Y165.159 E124.49796
G1 X129.868 Y165.295 E124.50163
G0 F12000 X129.545 Y165.558
G1 F3375 X129.883 Y165.791 E124.51187
G1 X140.81 Y167.753 E124.78881
G1 X141.333 Y167.745 E124.80186
G1 X141.781 Y167.404 E124.8159
G1 X149.822 Y164.141 E125.03237
G1 X150.119 Y164.117 E125.0398
G1 X158.216 Y167.403 E125.25778
G1 X158.666 Y167.745 E125.27188
G1 X159.152 Y167.765 E125.28402
G1 X170.12 Y165.791 E125.56201
G1 X170.455 Y165.559 E125.57217
G1 X170.613 Y165.183 E125.58235
G1 X170.422 Y164.524 E125.59946
G1 X159.993 Y146.877 E126.1108
G1 X157.944 Y144.086 E126.19717
G1 X150.331 Y134.825 E126.49622
G1 X149.669 Y134.824 E126.51273
G1 X142.055 Y144.087 E126.81184
G1 X140.007 Y146.877 E126.89818
G1 X129.577 Y164.531 E127.40967
G1 X129.387 Y165.184 E127.42664
G1 X129.545 Y165.558 E127.43676
G0 F12000 X129.221 Y165.822
;TYPE:WALL-OUTER
G1 F1575 X129.727 Y166.17 E127.45208
G1 X140.739 Y168.147 E127.73117
G1 X140.801 Y168.168 E127.7328
G1 X141.487 Y168.139 E127.74993
G1 X141.902 Y167.786 E127.76352
G1 X149.94 Y164.523 E127.97992
G1 X150.04 Y164.515 E127.98242
G1 X158.095 Y167.785 E128.19928
G1 X158.512 Y168.139 E128.21293
G1 X159.201 Y168.168 E128.23013
G1 X159.263 Y168.148 E128.23176
G1 X170.276 Y166.169 E128.51088
G1 X170.778 Y165.823 E128.52609
G1 X171.037 Y165.208 E128.54273
G1 X170.792 Y164.364 E128.56465
G1 X160.327 Y146.657 E129.07773
G1 X158.26 Y143.84 E129.16489
G1 X150.52 Y134.425 E129.46892
G1 X149.48 Y134.424 E129.49487
G1 X141.739 Y143.841 E129.79895
G1 X139.673 Y146.657 E129.88608
G1 X129.207 Y164.371 E130.39932
G1 X128.963 Y165.208 E130.42107
G1 X129.221 Y165.822 E130.43768
G1 F3900 E125.93768
G0 F12000 X129.785 Y165.367
G0 X130.232 Y165.065
;TYPE:SKIN
G1 F3900 E130.43768
G1 F1350 X130.295 Y164.845 E130.44339
G1 X140.659 Y147.302 E130.95166
G1 X142.667 Y144.566 E131.03632
G1 X150 Y135.648 E131.32433
G1 X157.332 Y144.565 E131.6123
G1 X159.341 Y147.302 E131.697
G1 X169.704 Y164.838 E132.20511
G1 X169.77 Y165.064 E132.21098
G1 X159.082 Y166.985 E132.48187
G1 X158.953 Y166.979 E132.48509
G1 X158.504 Y166.681 E132.49853
G1 X150.408 Y163.399 E132.71645
G1 X150.191 Y163.351 E132.72199
G1 X149.809 Y163.351 E132.73152
G1 X149.592 Y163.399 E132.73707
