;FLAVOR:Marlin
;TIME:4351
;Filament used: 3.2678m
;Layer height: 0.15
;MINX:122.714
;MINY:124.077
;MINZ:0.3
;MAXX:177.295
;MAXY:176.389
;MAXZ:10.65
;Generated with Cura_SteamEngine 5.3.1
M140 S70
M105
M190 S70
M104 S255
M105
M109 S255
M82 ;absolute extrusion mode

M400
G28; HOME GERAL
M400
G29; AUTO NIVELAMENTO
G1 Z10 F12000
M400
G1 X150 Y150
M400
G1 Z0.0
M400
G1 Z10
M400
G27
M400
G92 E0; RESETA EXTRUSOR
G1 E20 F500;
G1 E-5;
G92 E0; RESETA EXTRUSOR
M117 Imprimindo...
M400
G92 E0
G92 E0
G1 F3900 E-4.5
;LAYER_COUNT:70
;LAYER:0
M107
G1 F600 Z0.5
G0 F12000 X147.279 Y132.562 Z0.5
;TYPE:SKIRT
G1 F600 Z0.3
G1 F3900 E0
G1 F2700 X147.643 Y132.204 E0.03311
G1 X148.058 Y131.907 E0.06621
G1 X148.514 Y131.678 E0.09931
G1 X149 Y131.523 E0.13239
G1 X149.586 Y131.435 E0.17082
G1 X150.311 Y131.446 E0.21785
G1 X150.819 Y131.494 E0.25094
G1 X151.314 Y131.621 E0.28409
G1 X151.782 Y131.823 E0.31715
G1 X152.214 Y132.095 E0.35026
G1 X152.743 Y132.592 E0.39733
G1 X154.286 Y134.404 E0.55169
G1 X156.929 Y137.591 E0.82022
G1 X159.105 Y140.26 E1.04357
G1 X161.207 Y142.886 E1.26173
G1 X162.043 Y143.965 E1.35025
G1 X162.512 Y144.61 E1.40198
G1 X162.901 Y145.252 E1.45066
G1 X173.251 Y162.769 E2.77026
G1 X173.61 Y163.396 E2.81712
G1 X173.951 Y164.172 E2.87209
G1 X174.118 Y164.881 E2.91934
G1 X174.156 Y165.39 E2.95244
G1 X174.114 Y165.898 E2.9855
G1 X173.872 Y166.75 E3.04294
G1 X173.552 Y167.38 E3.08877
G1 X173.252 Y167.793 E3.12188
G1 X172.623 Y168.378 E3.17759
G1 X172.051 Y168.735 E3.22132
G1 X171.462 Y168.983 E3.26277
G1 X170.353 Y169.203 E3.3361
G1 X160.12 Y171.045 E4.01045
G1 X159.266 Y171.187 E4.0666
G1 X158.374 Y171.201 E4.12446
G1 X157.287 Y171.127 E4.19512
G1 X156.56 Y171.067 E4.24243
G1 X153.856 Y170.92 E4.41807
G1 X151.106 Y170.849 E4.59648
G1 X148.356 Y170.856 E4.77484
G1 X145.659 Y170.939 E4.94985
G1 X141.369 Y171.219 E5.22868
G1 X140.492 Y171.14 E5.28579
G1 X139.789 Y171.024 E5.332
G1 X129.51 Y169.18 E6.00931
G1 X128.853 Y169.053 E6.05271
G1 X128.361 Y168.917 E6.08581
G1 X127.897 Y168.706 E6.11887
G1 X127.404 Y168.389 E6.15689
G1 X127.005 Y168.07 E6.19002
G1 X126.661 Y167.693 E6.22312
G1 X126.202 Y166.938 E6.28043
G1 X125.958 Y166.275 E6.32625
G1 X125.858 Y165.774 E6.35938
G1 X125.838 Y165.264 E6.39248
G1 X125.898 Y164.758 E6.42553
G1 X126.114 Y164.017 E6.47559
G1 X126.382 Y163.407 E6.5188
G1 X126.687 Y162.87 E6.55886
G1 X137.003 Y145.411 E7.8741
G1 X137.284 Y144.954 E7.90889
G1 X137.883 Y144.048 E7.97933
G1 X138.698 Y143.002 E8.06533
G1 X140.939 Y140.201 E8.29799
G1 X142.204 Y138.644 E8.4281
G1 X144.243 Y136.163 E8.63638
G1 X145.59 Y134.547 E8.77282
G1 X146.821 Y133.09 E8.89653
G1 X147.279 Y132.562 E8.94187
G0 F12000 X146.914 Y132.191
G1 F2700 X147.306 Y131.805 E8.97755
G1 X147.787 Y131.461 E9.0159
G1 X148.314 Y131.196 E9.05416
G1 X148.883 Y131.015 E9.09288
G1 X149.554 Y130.914 E9.13689
G1 X150.36 Y130.928 E9.18918
G1 X150.908 Y130.98 E9.22488
G1 X151.443 Y131.117 E9.2607
G1 X152.025 Y131.361 E9.30163
G1 X152.535 Y131.683 E9.34074
G1 X153.139 Y132.255 E9.3947
G1 X154.686 Y134.072 E9.54947
G1 X157.332 Y137.262 E9.81827
G1 X159.511 Y139.935 E10.04194
G1 X161.618 Y142.568 E10.26066
G1 X162.464 Y143.659 E10.3502
G1 X162.933 Y144.304 E10.40192
G1 X163.349 Y144.987 E10.45379
G1 X173.702 Y162.511 E11.77388
G1 X174.086 Y163.187 E11.8243
G1 X174.446 Y164.006 E11.88232
G1 X174.634 Y164.806 E11.93562
G1 X174.675 Y165.351 E11.97107
G1 X174.629 Y165.989 E12.01256
G1 X174.358 Y166.942 E12.07682
G1 X173.996 Y167.654 E12.12862
G1 X173.645 Y168.138 E12.1674
G1 X172.942 Y168.792 E12.22967
G1 X172.29 Y169.198 E12.27949
G1 X171.615 Y169.483 E12.32701
G1 X170.445 Y169.715 E12.40437
G1 X160.205 Y171.558 E13.07918
G1 X159.312 Y171.706 E13.13788
G1 X158.339 Y171.72 E13.201
G1 X157.244 Y171.645 E13.27218
G1 X156.524 Y171.586 E13.31904
G1 X153.843 Y171.44 E13.49318
G1 X151.094 Y171.369 E13.67153
G1 X148.372 Y171.376 E13.84807
G1 X145.68 Y171.459 E14.02275
G1 X141.362 Y171.741 E14.3034
G1 X140.445 Y171.658 E14.36312
G1 X139.697 Y171.536 E14.41227
G1 X129.411 Y169.691 E15.09004
G1 X128.754 Y169.564 E15.13344
G1 X128.183 Y169.407 E15.17185
G1 X127.616 Y169.143 E15.21241
G1 X127.079 Y168.795 E15.25391
G1 X126.651 Y168.453 E15.28945
G1 X126.243 Y168.006 E15.3287
G1 X125.73 Y167.163 E15.3927
G1 X125.456 Y166.417 E15.44424
G1 X125.34 Y165.834 E15.4828
G1 X125.318 Y165.284 E15.5185
G1 X125.387 Y164.653 E15.55967
G1 X125.638 Y163.808 E15.61684
G1 X125.93 Y163.15 E15.66353
G1 X126.239 Y162.605 E15.70416
G1 X136.56 Y145.139 E17.01995
G1 X136.85 Y144.667 E17.05588
G1 X137.449 Y143.761 E17.12633
G1 X138.292 Y142.677 E17.21539
G1 X140.535 Y139.873 E17.44827
G1 X141.802 Y138.314 E17.57857
G1 X143.844 Y135.83 E17.78712
G1 X145.193 Y134.211 E17.9238
G1 X146.428 Y132.749 E18.04792
G1 X146.914 Y132.191 E18.09592
G0 F12000 X146.549 Y131.82
G1 F2700 X146.968 Y131.407 E18.13407
G1 X147.553 Y130.996 E18.18044
G1 X148.117 Y130.712 E18.2214
G1 X148.76 Y130.508 E18.26515
G1 X149.522 Y130.393 E18.31513
G1 X150.409 Y130.41 E18.37267
G1 X150.999 Y130.466 E18.41111
G1 X151.644 Y130.637 E18.45439
G1 X152.267 Y130.898 E18.4982
G1 X152.857 Y131.271 E18.54347
G1 X153.497 Y131.877 E18.60063
G1 X155.086 Y133.74 E18.75944
G1 X157.735 Y136.933 E19.02852
G1 X159.917 Y139.61 E19.25251
G1 X162.029 Y142.249 E19.47173
G1 X162.885 Y143.353 E19.56234
G1 X163.354 Y143.998 E19.61406
G1 X163.797 Y144.723 E19.66917
G1 X174.154 Y162.254 E20.98978
G1 X174.538 Y162.93 E21.0402
G1 X174.941 Y163.84 E21.10475
G1 X175.15 Y164.731 E21.16411
G1 X175.194 Y165.312 E21.2019
G1 X175.145 Y166.075 E21.25148
G1 X174.843 Y167.137 E21.32309
G1 X174.443 Y167.922 E21.38023
G1 X174.036 Y168.485 E21.42529
G1 X173.261 Y169.206 E21.49394
G1 X172.529 Y169.661 E21.54984
G1 X171.768 Y169.983 E21.60344
G1 X170.537 Y170.227 E21.68483
G1 X160.29 Y172.071 E22.3601
G1 X159.358 Y172.226 E22.42137
G1 X158.303 Y172.239 E22.4898
G1 X157.202 Y172.163 E22.56138
G1 X156.491 Y172.105 E22.60765
G1 X153.83 Y171.96 E22.78049
G1 X151.082 Y171.889 E22.95878
G1 X148.388 Y171.896 E23.1335
G1 X145.701 Y171.979 E23.30786
G1 X141.355 Y172.263 E23.59033
G1 X140.398 Y172.176 E23.65265
G1 X139.605 Y172.048 E23.70475
G1 X129.312 Y170.202 E24.38298
G1 X128.655 Y170.075 E24.42638
G1 X128.003 Y169.897 E24.47021
G1 X127.333 Y169.579 E24.51831
G1 X126.754 Y169.201 E24.56316
G1 X126.293 Y168.833 E24.60142
G1 X125.827 Y168.322 E24.64627
G1 X125.259 Y167.389 E24.71711
G1 X124.954 Y166.558 E24.77452
G1 X124.821 Y165.892 E24.81857
G1 X124.798 Y165.305 E24.85667
G1 X124.874 Y164.554 E24.90563
G1 X125.163 Y163.597 E24.97047
G1 X125.455 Y162.939 E25.01716
G1 X125.791 Y162.34 E25.0617
G1 X136.117 Y144.867 E26.37805
G1 X136.416 Y144.38 E26.41511
G1 X137.015 Y143.474 E26.48556
G1 X137.886 Y142.352 E26.57768
G1 X140.131 Y139.545 E26.8108
G1 X141.4 Y137.984 E26.94127
G1 X143.445 Y135.497 E27.1501
G1 X144.796 Y133.875 E27.28701
G1 X146.036 Y132.407 E27.41164
G1 X146.549 Y131.82 E27.4622
G1 F3900 E22.9622
G1 F600 Z0.5
;MESH:Ya v1.stl
G0 F12000 X130.851 Y164.788 Z0.5
;TYPE:WALL-INNER
G1 F600 Z0.3
G1 F3900 E27.4622
G1 F2700 X141.049 Y166.616 E28.13416
G1 X145.17 Y164.975 E28.42185
G1 X147.124 Y164.215 E28.55783
G1 X147.839 Y163.95 E28.60728
G1 X148.837 Y163.612 E28.67562
G1 X149.818 Y163.363 E28.74126
G1 X150.275 Y163.368 E28.77091
G1 X151.297 Y163.632 E28.83937
G1 X152.231 Y163.943 E28.90321
G1 X153.033 Y164.237 E28.95861
G1 X154.854 Y164.932 E29.08503
G1 X156.526 Y165.592 E29.20161
G1 X158.521 Y166.404 E29.34131
G1 X158.959 Y166.621 E29.37301
G1 X169.145 Y164.786 E30.04428
G1 X158.68 Y147.075 E31.37851
G1 X158.098 Y146.301 E31.44132
G1 X155.59 Y143.166 E31.7017
G1 X153.242 Y140.285 E31.94275
G1 X150.924 Y137.49 E32.17826
G1 X149.998 Y136.395 E32.27127
G1 X149.074 Y137.488 E32.36409
G1 X147.745 Y139.085 E32.49884
G1 X145.719 Y141.55 E32.70579
G1 X144.36 Y143.224 E32.84563
G1 X141.895 Y146.307 E33.10164
G1 X141.333 Y147.047 E33.16191
G1 X130.851 Y164.788 E34.49837
G0 F12000 X130.022 Y165.167
G1 F2700 X141.149 Y167.159 E35.23151
G1 X141.311 Y167.072 E35.24344
G1 X145.359 Y165.46 E35.52603
G1 X147.306 Y164.702 E35.66154
G1 X148.008 Y164.442 E35.71009
G1 X148.967 Y164.115 E35.77581
G1 X149.904 Y163.876 E35.83852
G1 X150.23 Y163.89 E35.85969
G1 X151.133 Y164.125 E35.9202
G1 X152.052 Y164.432 E35.98304
G1 X152.848 Y164.723 E36.03801
G1 X154.663 Y165.416 E36.16402
G1 X156.331 Y166.074 E36.28031
G1 X158.29 Y166.87 E36.41746
G1 X158.881 Y167.164 E36.46027
G1 X169.973 Y165.165 E37.19125
G1 X159.113 Y146.786 E38.57581
G1 X158.509 Y145.983 E38.64098
G1 X155.993 Y142.837 E38.90225
G1 X153.642 Y139.953 E39.14357
G1 X151.313 Y137.146 E39.38013
G1 X149.998 Y135.59 E39.51226
G1 X148.675 Y137.155 E39.64517
G1 X147.343 Y138.755 E39.7802
G1 X145.315 Y141.222 E39.98732
G1 X143.954 Y142.9 E40.12745
G1 X141.485 Y145.987 E40.38383
G1 X140.901 Y146.757 E40.4465
G1 X130.022 Y165.167 E41.83342
G0 F12000 X129.429 Y165.527
;TYPE:WALL-OUTER
G1 F1800 X129.548 Y165.61 E41.84283
G1 X141.067 Y167.676 E42.60184
G1 X141.317 Y167.693 E42.61809
G1 X141.467 Y167.569 E42.63072
G1 X145.547 Y165.944 E42.91555
G1 X147.487 Y165.19 E43.05054
G1 X148.176 Y164.934 E43.09821
G1 X149.097 Y164.619 E43.16134
G1 X150.032 Y164.378 E43.22397
G1 X150.969 Y164.619 E43.28672
G1 X151.874 Y164.92 E43.34857
G1 X152.662 Y165.209 E43.40301
G1 X154.472 Y165.9 E43.52867
G1 X156.136 Y166.556 E43.64467
G1 X158.058 Y167.336 E43.7792
G1 X158.511 Y167.561 E43.81201
G1 X158.687 Y167.696 E43.82639
G1 X158.898 Y167.689 E43.84009
G1 X170.449 Y165.609 E44.6013
G1 X170.568 Y165.526 E44.61071
G1 X170.633 Y165.377 E44.62125
G1 X170.552 Y165.122 E44.63861
G1 X159.546 Y146.496 E46.04177
G1 X158.92 Y145.664 E46.1093
G1 X156.396 Y142.509 E46.37135
G1 X154.042 Y139.621 E46.613
G1 X151.71 Y136.81 E46.84988
G1 X150.143 Y134.956 E47.00732
G1 X149.852 Y134.956 E47.0262
G1 X148.275 Y136.822 E47.18465
G1 X146.941 Y138.425 E47.31991
G1 X144.911 Y140.894 E47.52722
G1 X143.589 Y142.522 E47.66323
G1 X141.075 Y145.667 E47.92437
G1 X140.648 Y146.23 E47.9702
G1 X140.359 Y146.652 E48.00337
G1 X129.445 Y165.123 E49.39485
G1 X129.363 Y165.378 E49.41222
G1 X129.429 Y165.527 E49.42279
G1 F3900 E44.92279
G0 F12000 X130.144 Y165.112
G0 X131.643 Y164.426
;TYPE:SKIN
G1 F3900 E49.42279
G1 F2700 X141.753 Y147.317 E50.71169
G1 X142.286 Y146.613 E50.76896
G1 X144.734 Y143.553 E51.02312
G1 X146.094 Y141.874 E51.16325
G1 X148.12 Y139.41 E51.37015
G1 X149.999 Y137.164 E51.56007
G1 X152.85 Y140.591 E51.84919
G1 X155.185 Y143.455 E52.08886
G1 X157.705 Y146.605 E52.35049
G1 X158.264 Y147.348 E52.41079
G1 X168.353 Y164.423 E53.6971
G1 X159.033 Y166.103 E54.31131
G1 X158.728 Y165.953 E54.33336
G1 X156.653 Y165.108 E54.47867
G1 X155.037 Y164.47 E54.59135
G1 X153.15 Y163.751 E54.72232
G1 X152.398 Y163.475 E54.77427
G1 X151.355 Y163.132 E54.84548
G1 X150.37 Y162.881 E54.91141
G1 X150.028 Y162.849 E54.93369
G1 X149.694 Y162.877 E54.95542
G1 X148.693 Y163.137 E55.0225
G1 X147.64 Y163.494 E55.09461
G1 X146.939 Y163.754 E55.1431
G1 X144.991 Y164.512 E55.27867
G1 X140.994 Y166.103 E55.55769
G1 X131.643 Y164.426 E56.17385
G0 F12000 X132.471 Y164.045
G1 F2700 X133.308 Y164.195 E56.229
G1 X132.726 Y163.613 E56.28238
G1 X132.999 Y163.15 E56.31724
G1 X134.205 Y164.356 E56.42786
G1 X135.101 Y164.516 E56.48689
G1 X133.272 Y162.688 E56.6546
G1 X133.545 Y162.225 E56.68946
G1 X135.997 Y164.677 E56.91436
G1 X136.893 Y164.838 E56.97341
G1 X133.819 Y161.764 E57.25536
G1 X134.092 Y161.301 E57.29022
G1 X137.789 Y164.999 E57.62936
G1 X138.686 Y165.16 E57.68847
G1 X134.365 Y160.839 E58.0848
G1 X134.638 Y160.376 E58.11966
G1 X139.582 Y165.32 E58.57313
G1 X140.478 Y165.482 E58.63219
G1 X134.911 Y159.915 E59.14281
G1 X135.184 Y159.452 E59.17767
G1 X141.194 Y165.462 E59.72891
G1 X141.72 Y165.252 E59.76565
G1 X135.457 Y158.99 E60.34006
G1 X135.731 Y158.528 E60.37489
G1 X142.246 Y165.043 E60.97246
G1 X142.772 Y164.834 E61.00917
G1 X136.004 Y158.065 E61.62999
G1 X136.277 Y157.603 E61.6648
G1 X143.298 Y164.625 E62.30882
G1 X143.824 Y164.415 E62.34556
G1 X136.55 Y157.141 E63.01274
G1 X136.823 Y156.679 E63.04755
G1 X144.35 Y164.206 E63.73794
G1 X144.876 Y163.997 E63.77465
G1 X137.096 Y156.216 E64.48829
G1 X137.369 Y155.754 E64.5231
G1 X145.406 Y163.791 E65.26027
G1 X145.936 Y163.585 E65.29715
G1 X137.642 Y155.291 E66.05789
G1 X137.916 Y154.83 E66.09267
G1 X146.465 Y163.379 E66.8768
G1 X146.998 Y163.176 E66.91379
G1 X138.189 Y154.367 E67.72177
G1 X138.462 Y153.905 E67.75658
G1 X147.536 Y162.979 E68.58886
G1 X148.085 Y162.793 E68.62646
G1 X138.735 Y153.443 E69.48406
G1 X139.008 Y152.981 E69.51886
G1 X148.639 Y162.611 E70.40219
G1 X149.222 Y162.459 E70.44127
G1 X139.281 Y152.518 E71.35308
G1 X139.554 Y152.056 E71.38788
G1 X149.842 Y162.344 E72.33152
G1 X150.026 Y162.326 E72.34351
G1 X150.649 Y162.415 E72.38432
G1 X139.828 Y151.594 E73.37685
G1 X140.101 Y151.132 E73.41165
G1 X151.649 Y162.68 E74.47086
G1 X152.746 Y163.041 E74.54576
G1 X140.374 Y150.669 E75.68054
G1 X140.647 Y150.207 E75.71535
G1 X153.93 Y163.49 E76.93369
G1 X155.119 Y163.944 E77.01624
G1 X140.92 Y149.745 E78.3186
G1 X141.193 Y149.282 E78.35346
G1 X156.331 Y164.42 E79.74195
G1 X157.561 Y164.915 E79.82794
G1 X141.466 Y148.82 E81.30421
G1 X141.74 Y148.358 E81.33904
G1 X158.804 Y165.422 E82.90419
G1 X159.131 Y165.556 E82.92711
G1 X159.589 Y165.472 E82.95731
G1 X142.013 Y147.896 E84.56941
G1 X142.302 Y147.45 E84.60388
G1 X160.213 Y165.361 E86.24671
G1 X160.836 Y165.248 E86.28778
G1 X142.619 Y147.031 E87.95868
G1 X142.943 Y146.62 E87.99262
G1 X161.459 Y165.136 E89.69095
G1 X162.082 Y165.023 E89.73201
G1 X143.271 Y146.212 E91.4574
G1 X143.597 Y145.804 E91.49127
G1 X162.705 Y164.911 E93.24385
G1 X163.328 Y164.799 E93.2849
G1 X143.924 Y145.395 E95.06467
G1 X144.251 Y144.986 E95.09864
G1 X163.951 Y164.686 E96.90556
G1 X164.574 Y164.574 E96.94661
G1 X144.577 Y144.577 E98.78078
G1 X144.905 Y144.169 E98.81473
G1 X165.197 Y164.461 E100.67596
G1 X165.82 Y164.349 E100.71701
G1 X145.232 Y143.761 E102.60538
G1 X145.561 Y143.355 E102.63927
G1 X166.443 Y164.236 E104.55457
G1 X167.065 Y164.124 E104.59556
G1 X145.89 Y142.949 E106.53777
G1 X146.219 Y142.542 E106.57171
G1 X167.242 Y163.565 E108.49999
G1 X166.179 Y161.767 E108.63546
G1 X146.549 Y142.136 E110.43601
G1 X146.881 Y141.733 E110.46987
G1 X165.117 Y159.969 E112.14251
G1 X164.054 Y158.171 E112.27798
G1 X147.213 Y141.33 E113.82267
G1 X147.544 Y140.926 E113.85655
G1 X162.991 Y156.373 E115.27338
G1 X161.928 Y154.574 E115.4089
G1 X147.877 Y140.523 E116.69769
G1 X148.208 Y140.119 E116.73156
G1 X160.866 Y152.776 E117.89253
G1 X159.803 Y150.978 E118.028
G1 X148.54 Y139.715 E119.06107
G1 X148.875 Y139.315 E119.09491
G1 X158.741 Y149.181 E119.99983
G1 X157.829 Y147.638 E120.11608
G1 X157.518 Y147.223 E120.14972
G1 X149.21 Y138.915 E120.91174
G1 X149.545 Y138.514 E120.94563
G1 X154.63 Y143.599 E121.41204
G1 X152.447 Y140.921 E121.63612
G1 X151.264 Y139.498 E121.75614
G1 X149.88 Y138.114 E121.88309
G1 X149.997 Y137.974 E121.89492
G1 F3900 E117.39492
;MESH:NONMESH
G0 F600 X149.997 Y137.974 Z0.45
G0 F12000 X130.144 Y165.112
G0 X129.874 Y165.297
;TIME_ELAPSED:58.012579
;LAYER:1
M106 S114.8
;TYPE:WALL-INNER
;MESH:Ya v1.stl
G1 F3900 E121.89492
G1 F4050 X130.025 Y165.402 E121.89951
G1 X140.779 Y167.331 E122.17205
G1 X141.158 Y167.36 E122.18153
G1 X141.391 Y167.17 E122.18903
G1 X141.649 Y167.024 E122.19643
G1 X145.291 Y165.615 E122.29384
G1 X146.621 Y165.117 E122.32926
G1 X147.264 Y164.889 E122.34628
G1 X147.989 Y164.647 E122.36535
G1 X148.646 Y164.458 E122.3824
G1 X149.321 Y164.306 E122.39966
G1 X150.106 Y164.244 E122.4193
G1 X150.677 Y164.279 E122.43357
G1 X151.605 Y164.466 E122.45719
