;FLAVOR:Marlin
;TIME:5091
;Filament used: 3.6246m
;Layer height: 0.15
;MINX:118.318
;MINY:117.743
;MINZ:0.3
;MAXX:182.083
;MAXY:181.69
;MAXZ:10.65
;Generated with Cura_SteamEngine 5.3.1
M140 S70
M105
M190 S70
M104 S255
M105
M109 S255
M82 ;absolute extrusion mode

M400
G28; HOME GERAL
M400
G29; AUTO NIVELAMENTO
G1 Z10 F12000
M400
G1 X150 Y150
M400
G1 Z0.0
M400
G1 Z10
M400
G27
M400
G92 E0; RESETA EXTRUSOR
G1 E20 F500;
G1 E-5;
G92 E0; RESETA EXTRUSOR
M117 Imprimindo...
M400
G92 E0
G92 E0
G1 F3900 E-4.5
;LAYER_COUNT:70
;LAYER:0
M107
G1 F600 Z0.5
G0 F12000 X145.902 Y120.762 Z0.5
;TYPE:SKIRT
G1 F600 Z0.3
G1 F3900 E0
G1 F2700 X146.574 Y120.066 E0.06275
G1 X147.267 Y119.517 E0.12009
G1 X147.895 Y119.184 E0.16619
G1 X148.823 Y118.901 E0.22911
G1 X149.621 Y118.785 E0.28141
G1 X150.456 Y118.798 E0.33558
G1 X150.964 Y118.848 E0.36868
G1 X151.754 Y119.062 E0.42177
G1 X152.23 Y119.247 E0.45489
G1 X152.92 Y119.667 E0.50728
G1 X153.404 Y120.059 E0.54767
G1 X154.038 Y120.683 E0.60537
G1 X154.436 Y121.176 E0.64646
G1 X154.744 Y121.63 E0.68205
G1 X155.61 Y122.95 E0.78444
G1 X157.183 Y125.209 E0.96297
G1 X158.814 Y127.414 E1.14085
G1 X160.507 Y129.573 E1.3188
G1 X162.247 Y131.667 E1.49537
G1 X164.042 Y133.707 E1.67161
G1 X165.897 Y135.699 E1.84815
G1 X167.839 Y137.668 E2.02752
G1 X169.821 Y139.567 E2.20554
G1 X171.859 Y141.413 E2.38389
G1 X173.837 Y143.115 E2.55313
G1 X174.751 Y144.036 E2.63728
G1 X176.333 Y145.729 E2.78756
G1 X176.376 Y145.767 E2.79129
G1 X177.607 Y147.082 E2.90811
G1 X178.435 Y148.115 E2.99398
G1 X179.122 Y148.99 E3.06613
G1 X179.515 Y149.63 E3.11484
G1 X179.874 Y150.403 E3.17011
G1 X180.19 Y151.138 E3.222
G1 X180.522 Y152.159 E3.29164
G1 X180.889 Y153.384 E3.37458
G1 X181.043 Y154.215 E3.42939
G1 X181.043 Y154.93 E3.47576
G1 X180.941 Y155.563 E3.51735
G1 X180.336 Y157.157 E3.62792
G1 X179.408 Y159.712 E3.80423
G1 X178.548 Y162.313 E3.9819
G1 X178.043 Y164.001 E4.09618
G1 X177.808 Y164.756 E4.14746
G1 X177.584 Y165.315 E4.18652
G1 X177.078 Y166.128 E4.24863
G1 X176.353 Y167.254 E4.33548
G1 X174.932 Y169.608 E4.51382
G1 X173.568 Y172.019 E4.69348
G1 X172.309 Y174.398 E4.86805
G1 X171.496 Y176.049 E4.98741
G1 X171.033 Y176.947 E5.05293
G1 X170.496 Y177.703 E5.11308
G1 X170.048 Y178.302 E5.16159
G1 X169.522 Y178.82 E5.20947
G1 X169.045 Y179.22 E5.24985
G1 X167.673 Y179.983 E5.35166
G1 X167.209 Y180.196 E5.38478
G1 X166.704 Y180.335 E5.41875
G1 X166.138 Y180.443 E5.45612
G1 X165.231 Y180.59 E5.51571
G1 X164.728 Y180.63 E5.54844
G1 X163.909 Y180.648 E5.60157
G1 X162.431 Y180.644 E5.69743
G1 X160.503 Y180.603 E5.8225
G1 X159.302 Y180.557 E5.90045
G1 X156.25 Y180.314 E6.09902
G1 X153.518 Y180.178 E6.27643
G1 X150.804 Y180.119 E6.4525
G1 X148.053 Y180.138 E6.63092
G1 X145.331 Y180.232 E6.80757
G1 X142.966 Y180.379 E6.96125
G1 X141.037 Y180.515 E7.08667
G1 X139.279 Y180.599 E7.20082
G1 X138.392 Y180.629 E7.25839
G1 X137.066 Y180.65 E7.3444
G1 X135.81 Y180.649 E7.42586
G1 X135.13 Y180.63 E7.46998
G1 X134.446 Y180.539 E7.51473
G1 X133.492 Y180.382 E7.57744
G1 X132.893 Y180.219 E7.6177
G1 X132.412 Y180.012 E7.65166
G1 X131.897 Y179.727 E7.68984
G1 X130.804 Y178.847 E7.78085
G1 X130.171 Y178.276 E7.83614
G1 X129.445 Y177.553 E7.90259
G1 X129.112 Y177.166 E7.9357
G1 X128.818 Y176.678 E7.97265
G1 X128.394 Y175.812 E8.03519
G1 X127.696 Y174.319 E8.14208
G1 X126.466 Y171.854 E8.32075
G1 X125.176 Y169.44 E8.49827
G1 X123.676 Y166.81 E8.69464
G1 X122.879 Y165.258 E8.80779
G1 X122.388 Y163.984 E8.89635
G1 X121.102 Y160.529 E9.13545
G1 X120.179 Y158.238 E9.29564
G1 X119.644 Y156.956 E9.38574
G1 X119.485 Y156.471 E9.41884
G1 X119.373 Y155.674 E9.47104
G1 X119.36 Y155.164 E9.50413
G1 X119.478 Y154.423 E9.55279
G1 X120.928 Y149.677 E9.87465
G1 X121.314 Y148.87 E9.93267
G1 X121.618 Y148.287 E9.97531
G1 X121.882 Y147.816 E10.01033
G1 X122.204 Y147.335 E10.04787
G1 X123.654 Y145.789 E10.18534
G1 X125.292 Y144.011 E10.34214
G1 X126.053 Y143.236 E10.41258
G1 X127.919 Y141.609 E10.57315
G1 X129.981 Y139.752 E10.75312
G1 X131.946 Y137.877 E10.92928
G1 X133.898 Y135.905 E11.10924
G1 X135.751 Y133.927 E11.28503
G1 X137.573 Y131.866 E11.46344
G1 X139.316 Y129.78 E11.63975
G1 X141.011 Y127.631 E11.81726
G1 X142.656 Y125.418 E11.9961
G1 X144.226 Y123.177 E12.17356
G1 X145.539 Y121.212 E12.32684
G1 X145.902 Y120.762 E12.36434
G0 F12000 X145.528 Y120.401
G1 F2700 X146.251 Y119.658 E12.43158
G1 X146.979 Y119.081 E12.49183
G1 X147.696 Y118.701 E12.54446
G1 X148.748 Y118.386 E12.61568
G1 X149.585 Y118.264 E12.67054
G1 X150.464 Y118.278 E12.72756
G1 X151.062 Y118.335 E12.76652
G1 X151.942 Y118.577 E12.82571
G1 X152.46 Y118.778 E12.86175
G1 X153.247 Y119.263 E12.9217
G1 X153.769 Y119.688 E12.96536
G1 X154.443 Y120.356 E13.02691
G1 X154.841 Y120.849 E13.068
G1 X155.179 Y121.345 E13.10693
G1 X156.037 Y122.653 E13.20838
G1 X157.61 Y124.912 E13.38692
G1 X159.223 Y127.093 E13.56285
G1 X160.907 Y129.241 E13.73988
G1 X162.637 Y131.323 E13.91544
G1 X164.423 Y133.353 E14.09081
G1 X166.278 Y135.345 E14.26734
G1 X168.199 Y137.293 E14.44478
G1 X170.18 Y139.191 E14.62272
G1 X172.198 Y141.019 E14.79932
G1 X174.206 Y142.749 E14.97122
G1 X175.131 Y143.681 E15.05638
G1 X176.696 Y145.356 E15.20506
G1 X176.756 Y145.412 E15.21038
G1 X178.013 Y146.757 E15.32978
G1 X178.844 Y147.794 E15.41597
G1 X179.531 Y148.669 E15.48812
G1 X179.987 Y149.411 E15.54461
G1 X180.352 Y150.198 E15.60087
G1 X180.685 Y150.977 E15.65582
G1 X181.02 Y152.01 E15.72625
G1 X181.387 Y153.235 E15.80919
G1 X181.563 Y154.168 E15.87077
G1 X181.563 Y154.97 E15.92278
G1 X181.445 Y155.7 E15.97074
G1 X180.822 Y157.342 E16.08465
G1 X179.897 Y159.89 E16.26046
G1 X179.042 Y162.476 E16.43711
G1 X178.54 Y164.156 E16.55083
G1 X178.305 Y164.911 E16.60211
G1 X178.051 Y165.548 E16.64659
G1 X177.515 Y166.41 E16.71242
G1 X176.79 Y167.536 E16.79928
G1 X175.385 Y169.864 E16.97563
G1 X174.021 Y172.275 E17.1553
G1 X172.776 Y174.628 E17.32795
G1 X171.958 Y176.287 E17.44792
G1 X171.457 Y177.248 E17.51821
G1 X170.912 Y178.014 E17.57918
G1 X170.413 Y178.673 E17.63279
G1 X169.887 Y179.191 E17.68067
G1 X169.34 Y179.65 E17.72698
G1 X167.89 Y180.456 E17.83458
G1 X167.391 Y180.685 E17.87019
G1 X166.801 Y180.846 E17.90985
G1 X166.221 Y180.956 E17.94814
G1 X165.272 Y181.108 E18.01047
G1 X164.739 Y181.15 E18.04515
G1 X163.908 Y181.168 E18.09906
G1 X162.42 Y181.164 E18.19557
G1 X160.483 Y181.123 E18.32122
G1 X159.282 Y181.077 E18.39917
G1 X156.217 Y180.833 E18.59859
G1 X153.507 Y180.698 E18.77457
G1 X150.797 Y180.639 E18.95038
G1 X148.071 Y180.658 E19.12718
G1 X145.349 Y180.752 E19.30383
G1 X143.003 Y180.898 E19.45628
G1 X141.062 Y181.034 E19.58247
G1 X139.297 Y181.119 E19.69708
G1 X138.41 Y181.149 E19.75464
G1 X137.066 Y181.17 E19.84182
G1 X135.795 Y181.169 E19.92425
G1 X135.115 Y181.15 E19.96837
G1 X134.362 Y181.052 E20.01762
G1 X133.355 Y180.884 E20.08384
G1 X132.687 Y180.697 E20.12883
G1 X132.206 Y180.49 E20.16279
G1 X131.607 Y180.161 E20.20711
G1 X130.456 Y179.233 E20.30301
G1 X129.804 Y178.644 E20.35999
G1 X129.051 Y177.892 E20.42901
G1 X128.69 Y177.473 E20.46488
G1 X128.351 Y176.907 E20.50767
G1 X127.923 Y176.032 E20.57085
G1 X127.225 Y174.539 E20.67774
G1 X126.007 Y172.099 E20.85461
G1 X124.717 Y169.685 E21.03213
G1 X123.213 Y167.048 E21.22902
G1 X122.416 Y165.496 E21.34218
G1 X121.901 Y164.165 E21.43474
G1 X120.615 Y160.71 E21.67384
G1 X119.699 Y158.438 E21.83272
G1 X119.164 Y157.156 E21.92282
G1 X118.976 Y156.588 E21.96162
G1 X118.853 Y155.687 E22.0206
G1 X118.839 Y155.128 E22.05687
G1 X118.964 Y154.341 E22.10855
G1 X120.442 Y149.488 E22.43758
G1 X120.853 Y148.63 E22.49928
G1 X121.164 Y148.033 E22.54294
G1 X121.428 Y147.562 E22.57796
G1 X121.796 Y147.01 E22.62098
G1 X123.275 Y145.433 E22.76121
G1 X124.921 Y143.647 E22.91873
G1 X125.711 Y142.844 E22.99179
G1 X127.577 Y141.217 E23.15236
G1 X129.624 Y139.374 E23.331
G1 X131.576 Y137.511 E23.50601
G1 X133.528 Y135.539 E23.68597
G1 X135.372 Y133.571 E23.86089
G1 X137.183 Y131.522 E24.03825
G1 X138.917 Y129.447 E24.21363
G1 X140.603 Y127.309 E24.39022
G1 X142.23 Y125.12 E24.56712
G1 X143.8 Y122.879 E24.74458
G1 X145.134 Y120.886 E24.90012
G1 X145.528 Y120.401 E24.94065
G0 F12000 X145.155 Y120.038
G1 F2700 X145.878 Y119.295 E25.00789
G1 X146.69 Y118.646 E25.07531
G1 X147.499 Y118.217 E25.1347
G1 X148.673 Y117.871 E25.21408
G1 X149.549 Y117.743 E25.2715
G1 X150.513 Y117.76 E25.33403
G1 X151.153 Y117.821 E25.37573
G1 X152.13 Y118.092 E25.44149
G1 X152.693 Y118.311 E25.48066
G1 X153.52 Y118.82 E25.54365
G1 X154.135 Y119.319 E25.59501
G1 X154.848 Y120.029 E25.66027
G1 X155.246 Y120.522 E25.70137
G1 X155.614 Y121.06 E25.74364
G1 X156.464 Y122.356 E25.84416
G1 X158.037 Y124.615 E26.0227
G1 X159.632 Y126.772 E26.19669
G1 X161.307 Y128.909 E26.37279
G1 X163.037 Y130.991 E26.54835
G1 X164.804 Y132.999 E26.72183
G1 X166.659 Y134.991 E26.89837
G1 X168.559 Y136.918 E27.07388
G1 X170.539 Y138.815 E27.25173
G1 X172.537 Y140.625 E27.42658
G1 X174.575 Y142.383 E27.60114
G1 X175.511 Y143.326 E27.68731
G1 X177.064 Y144.988 E27.83484
G1 X177.136 Y145.057 E27.84131
G1 X178.419 Y146.432 E27.96328
G1 X179.253 Y147.473 E28.04979
G1 X179.94 Y148.348 E28.12195
G1 X180.459 Y149.192 E28.18621
G1 X180.83 Y149.994 E28.24352
G1 X181.18 Y150.817 E28.30152
G1 X181.518 Y151.861 E28.37269
G1 X181.898 Y153.139 E28.45917
G1 X182.083 Y154.12 E28.52391
G1 X182.083 Y155.01 E28.58164
G1 X181.95 Y155.835 E28.63583
G1 X181.308 Y157.526 E28.75315
G1 X180.386 Y160.067 E28.92846
G1 X179.536 Y162.639 E29.10415
G1 X179.037 Y164.311 E29.21732
G1 X178.802 Y165.066 E29.2686
G1 X178.516 Y165.786 E29.31885
G1 X177.952 Y166.692 E29.38806
G1 X177.227 Y167.818 E29.47492
G1 X175.838 Y170.12 E29.6493
G1 X174.474 Y172.531 E29.82896
G1 X173.236 Y174.871 E30.00065
G1 X172.419 Y176.527 E30.12042
G1 X171.881 Y177.549 E30.19532
G1 X171.327 Y178.328 E30.25732
G1 X170.778 Y179.044 E30.31584
G1 X170.252 Y179.562 E30.36372
G1 X169.632 Y180.083 E30.41624
G1 X168.143 Y180.911 E30.52674
G1 X167.57 Y181.176 E30.56769
G1 X166.938 Y181.348 E30.61017
G1 X166.303 Y181.469 E30.65209
G1 X165.313 Y181.626 E30.71711
G1 X164.75 Y181.67 E30.75373
G1 X163.907 Y181.688 E30.80842
G1 X162.409 Y181.684 E30.90558
G1 X160.463 Y181.643 E31.03182
G1 X159.262 Y181.597 E31.10977
G1 X156.184 Y181.352 E31.31003
G1 X153.496 Y181.218 E31.48458
G1 X150.79 Y181.159 E31.66013
G1 X148.089 Y181.178 E31.83531
G1 X145.367 Y181.272 E32.01196
G1 X143.039 Y181.417 E32.16324
G1 X141.087 Y181.553 E32.29015
G1 X139.315 Y181.639 E32.40521
G1 X138.428 Y181.669 E32.46277
G1 X137.066 Y181.69 E32.55112
G1 X135.78 Y181.689 E32.63452
G1 X135.048 Y181.666 E32.68202
G1 X134.276 Y181.565 E32.73252
G1 X133.215 Y181.385 E32.80231
G1 X132.481 Y181.175 E32.85183
G1 X132 Y180.968 E32.88579
G1 X131.317 Y180.595 E32.93627
G1 X130.107 Y179.619 E33.03709
G1 X129.455 Y179.03 E33.09408
G1 X128.657 Y178.231 E33.16732
G1 X128.267 Y177.778 E33.20609
G1 X127.905 Y177.174 E33.25176
G1 X127.452 Y176.252 E33.31838
G1 X126.754 Y174.759 E33.42527
G1 X125.548 Y172.344 E33.60035
G1 X124.258 Y169.93 E33.77787
G1 X122.75 Y167.286 E33.97528
G1 X121.953 Y165.734 E34.08844
G1 X121.414 Y164.346 E34.18501
G1 X120.128 Y160.891 E34.42411
G1 X119.219 Y158.638 E34.58168
G1 X118.67 Y157.319 E34.67434
G1 X118.468 Y156.708 E34.71607
G1 X118.333 Y155.7 E34.78203
G1 X118.318 Y155.092 E34.82148
G1 X118.45 Y154.259 E34.87618
G1 X119.958 Y149.294 E35.21272
G1 X120.392 Y148.39 E35.27776
G1 X120.71 Y147.779 E35.32243
G1 X120.974 Y147.308 E35.35745
G1 X121.387 Y146.686 E35.40588
G1 X122.896 Y145.077 E35.54894
G1 X124.55 Y143.282 E35.70725
G1 X125.34 Y142.479 E35.78031
G1 X127.235 Y140.825 E35.94345
G1 X129.267 Y138.996 E36.12076
G1 X131.206 Y137.145 E36.29462
G1 X133.158 Y135.173 E36.47458
G1 X134.993 Y133.215 E36.64862
G1 X136.793 Y131.178 E36.82493
G1 X138.518 Y129.114 E36.99939
G1 X140.195 Y126.987 E37.17506
G1 X141.804 Y124.822 E37.35001
G1 X143.374 Y122.581 E37.52747
G1 X144.73 Y120.558 E37.68543
G1 X145.155 Y120.038 E37.72898
G1 F3900 E33.22898
G1 F600 Z0.5
G0 F12000 X148.471 Y123.143 Z0.5
G1 F600 Z0.3
G1 F3900 E37.72898
G1 F2700 X149.052 Y122.561 E37.78232
G1 X149.277 Y122.416 E37.79968
G1 X149.693 Y122.303 E37.82764
G1 X150.325 Y122.305 E37.86863
G1 X150.715 Y122.415 E37.89491
G1 X150.971 Y122.587 E37.91491
G1 X151.541 Y123.163 E37.96747
G1 X151.729 Y123.469 E37.99076
G1 X151.876 Y123.938 E38.02264
G1 X151.887 Y124.276 E38.04457
G1 X151.813 Y124.819 E38.08012
G1 X151.813 Y124.883 E38.08427
G1 X151.866 Y125.356 E38.11514
G1 X151.871 Y125.388 E38.11724
G1 X152.016 Y125.987 E38.15721
G1 X152.04 Y126.048 E38.16146
G1 X152.348 Y126.627 E38.204
G1 X152.346 Y126.64 E38.20485
G1 X152.38 Y126.743 E38.21188
G1 X152.68 Y127.257 E38.25048
G1 X152.678 Y127.283 E38.25217
G1 X152.714 Y127.371 E38.25834
G1 X152.841 Y127.57 E38.27365
G1 X152.839 Y127.588 E38.27483
G1 X152.88 Y127.69 E38.28196
G1 X153.044 Y127.936 E38.30113
G1 X153.084 Y128.059 E38.30952
G1 X153.123 Y128.135 E38.31506
G1 X153.175 Y128.204 E38.32066
G1 X153.174 Y128.21 E38.32106
G1 X153.217 Y128.321 E38.32878
G1 X153.38 Y128.562 E38.34765
G1 X153.428 Y128.706 E38.35749
G1 X153.475 Y128.791 E38.36379
G1 X153.51 Y128.832 E38.36729
G1 X153.508 Y128.845 E38.36814
G1 X153.552 Y128.955 E38.37583
G1 X153.679 Y129.136 E38.39017
G1 X153.678 Y129.147 E38.39088
G1 X153.72 Y129.255 E38.3984
G1 X153.852 Y129.451 E38.41373
G1 X153.892 Y129.564 E38.4215
G1 X154.025 Y129.769 E38.43735
G1 X154.024 Y129.779 E38.438
G1 X154.064 Y129.883 E38.44523
G1 X154.193 Y130.078 E38.46039
G1 X154.192 Y130.086 E38.46091
G1 X154.233 Y130.199 E38.46871
G1 X154.363 Y130.397 E38.48407
G1 X154.414 Y130.522 E38.49283
G1 X154.72 Y130.922 E38.52549
G1 X154.741 Y130.946 E38.52756
G1 X155.55 Y131.772 E38.60255
G1 X155.674 Y131.843 E38.61182
G1 X155.755 Y131.84 E38.61707
G1 X157.113 Y133.21 E38.74218
G1 X157.238 Y133.28 E38.75147
G1 X157.32 Y133.277 E38.7568
G1 X158.564 Y134.532 E38.8714
G1 X158.689 Y134.602 E38.8807
G1 X158.773 Y134.598 E38.88615
G1 X159.922 Y135.761 E38.99218
G1 X160.047 Y135.831 E39.00147
G1 X160.126 Y135.828 E39.0066
G1 X161.198 Y136.909 E39.10534
G1 X161.323 Y136.979 E39.11463
G1 X161.404 Y136.976 E39.11989
G1 X162.419 Y137.999 E39.21336
G1 X162.544 Y138.069 E39.22265
G1 X162.625 Y138.066 E39.2279
G1 X163.574 Y139.026 E39.31545
G1 X163.698 Y139.096 E39.32469
G1 X163.783 Y139.092 E39.33021
G1 X164.684 Y140.001 E39.41322
G1 X164.809 Y140.071 E39.42251
G1 X164.892 Y140.068 E39.4279
G1 X165.745 Y140.932 E39.50664
G1 X165.869 Y141.002 E39.51588
G1 X165.953 Y140.998 E39.52133
G1 X166.772 Y141.826 E39.59687
G1 X166.897 Y141.896 E39.60616
G1 X166.978 Y141.893 E39.61141
G1 X167.758 Y142.679 E39.68323
G1 X167.883 Y142.749 E39.69252
G1 X167.962 Y142.745 E39.69766
G1 X168.701 Y143.491 E39.76576
G1 X168.826 Y143.561 E39.77505
G1 X168.907 Y143.558 E39.78031
G1 X169.609 Y144.268 E39.84507
G1 X169.733 Y144.338 E39.8543
G1 X169.818 Y144.334 E39.85982
G1 X170.495 Y145.021 E39.92238
G1 X170.619 Y145.091 E39.93161
G1 X170.706 Y145.087 E39.93726
G1 X171.44 Y145.828 E40.00491
G1 X171.565 Y145.898 E40.0142
G1 X171.656 Y145.894 E40.0201
G1 X172.831 Y147.121 E40.13029
G1 X173.209 Y147.724 E40.17645
G1 X173.224 Y147.746 E40.17817
G1 X173.522 Y148.127 E40.20954
G1 X173.638 Y148.211 E40.21883
G1 X173.699 Y148.216 E40.2228
G1 X173.949 Y148.587 E40.25182
G1 X173.978 Y148.623 E40.25482
G1 X174.431 Y149.091 E40.29706
G1 X174.49 Y149.137 E40.30191
G1 X174.956 Y149.399 E40.33659
G1 X175.337 Y150.043 E40.38512
G1 X175.352 Y150.065 E40.38684
G1 X175.792 Y150.66 E40.43484
G1 X175.829 Y150.7 E40.43837
G1 X176.367 Y151.174 E40.48488
G1 X176.921 Y152.425 E40.57361
G1 X177.519 Y154.372 E40.70571
