;FLAVOR:Marlin
;TIME:581
;Filament used: 0.328992m
;Layer height: 0.15
;MINX:140.7
;MINY:140.7
;MINZ:0.3
;MAXX:159.3
;MAXY:159.3
;MAXZ:10.05
;Generated with Cura_SteamEngine 5.3.1
M140 S70
M105
M190 S70
M104 S255
M105
M109 S255
M82 ;absolute extrusion mode

M400
G28; HOME GERAL
M400
G29; AUTO NIVELAMENTO
G1 Z10 F12000
M400
G1 X150 Y150
M400
G1 Z0.0
M400
G1 Z10
M400
G27
M400
G92 E0; RESETA EXTRUSOR
G1 E20 F500;
G1 E-5;
G92 E0; RESETA EXTRUSOR
M117 Imprimindo...
M400
G92 E0
G92 E0
G1 F3900 E-4.5
;LAYER_COUNT:66
;LAYER:0
M107
G1 F600 Z0.5
G0 F12000 X142.731 Y142.677 Z0.5
;TYPE:SKIRT
G1 F600 Z0.3
G1 F3900 E0
G1 F2700 X143.123 Y142.35 E0.03311
G1 X143.561 Y142.088 E0.06621
G1 X144.034 Y141.898 E0.09927
G1 X144.531 Y141.784 E0.13234
G1 X145.02 Y141.741 E0.16418
G1 X154.34 Y141.74 E0.76865
G1 X155.038 Y141.75 E0.81392
G1 X155.546 Y141.798 E0.84702
G1 X156.04 Y141.923 E0.88007
G1 X156.509 Y142.125 E0.91319
G1 X156.941 Y142.397 E0.9463
G1 X157.325 Y142.734 E0.97943
G1 X157.651 Y143.126 E1.0125
G1 X157.913 Y143.564 E1.0456
G1 X158.103 Y144.037 E1.07866
G1 X158.216 Y144.535 E1.11178
G1 X158.259 Y145.019 E1.1433
G1 X158.26 Y154.304 E1.7455
G1 X158.251 Y155.031 E1.79265
G1 X158.205 Y155.54 E1.8258
G1 X158.08 Y156.034 E1.85885
G1 X157.879 Y156.503 E1.89194
G1 X157.607 Y156.936 E1.9251
G1 X157.272 Y157.32 E1.95816
G1 X156.881 Y157.648 E1.99126
G1 X156.443 Y157.91 E2.02436
G1 X155.97 Y158.101 E2.05744
G1 X155.472 Y158.215 E2.09058
G1 X154.982 Y158.259 E2.12248
G1 X145.665 Y158.26 E2.72676
G1 X144.967 Y158.251 E2.77203
G1 X144.459 Y158.204 E2.80512
G1 X143.964 Y158.079 E2.83823
G1 X143.495 Y157.878 E2.87133
G1 X143.063 Y157.606 E2.90444
G1 X142.679 Y157.271 E2.93749
G1 X142.352 Y156.879 E2.9706
G1 X142.089 Y156.441 E3.00373
G1 X141.899 Y155.968 E3.03679
G1 X141.784 Y155.471 E3.06988
G1 X141.741 Y154.976 E3.1021
G1 X141.74 Y145.63 E3.70826
G1 X141.749 Y144.965 E3.75139
G1 X141.796 Y144.457 E3.78448
G1 X141.922 Y143.962 E3.81761
G1 X142.123 Y143.493 E3.8507
G1 X142.395 Y143.061 E3.88381
G1 X142.731 Y142.677 E3.91691
G0 F12000 X142.368 Y142.303
G1 F2700 X142.824 Y141.923 E3.9554
G1 X143.367 Y141.605 E3.99622
G1 X143.878 Y141.4 E4.03192
G1 X144.485 Y141.266 E4.07224
G1 X145.02 Y141.221 E4.10706
G1 X154.347 Y141.22 E4.71199
G1 X155.087 Y141.232 E4.75999
G1 X155.633 Y141.284 E4.79556
G1 X156.211 Y141.43 E4.83422
G1 X156.715 Y141.647 E4.86981
G1 X157.252 Y141.978 E4.91073
G1 X157.697 Y142.369 E4.94915
G1 X158.078 Y142.826 E4.98774
G1 X158.396 Y143.37 E5.0286
G1 X158.601 Y143.88 E5.06425
G1 X158.734 Y144.489 E5.10468
G1 X158.779 Y145.019 E5.13918
G1 X158.78 Y154.31 E5.74177
G1 X158.769 Y155.078 E5.79158
G1 X158.719 Y155.627 E5.82734
G1 X158.574 Y156.202 E5.8658
G1 X158.341 Y156.744 E5.90406
G1 X158.025 Y157.248 E5.94264
G1 X157.664 Y157.662 E5.97827
G1 X157.184 Y158.072 E6.01921
G1 X156.674 Y158.377 E6.05775
G1 X156.124 Y158.6 E6.09624
G1 X155.519 Y158.733 E6.13642
G1 X154.982 Y158.779 E6.17138
G1 X145.658 Y158.78 E6.7761
G1 X144.919 Y158.769 E6.82404
G1 X144.411 Y158.722 E6.85713
G1 X143.797 Y158.573 E6.89811
G1 X143.253 Y158.34 E6.93649
G1 X142.75 Y158.023 E6.97505
G1 X142.307 Y157.636 E7.0132
G1 X141.906 Y157.147 E7.05422
G1 X141.621 Y156.673 E7.09009
G1 X141.401 Y156.126 E7.12833
G1 X141.277 Y155.588 E7.16413
G1 X141.221 Y154.976 E7.20399
G1 X141.22 Y145.623 E7.8106
G1 X141.231 Y144.917 E7.8564
G1 X141.282 Y144.37 E7.89203
G1 X141.428 Y143.794 E7.93057
G1 X141.661 Y143.252 E7.96883
G1 X141.975 Y142.752 E8.00712
G1 X142.368 Y142.303 E8.04582
G0 F12000 X142.005 Y141.929
G1 F2700 X142.529 Y141.493 E8.09004
G1 X143.173 Y141.122 E8.13824
G1 X143.722 Y140.902 E8.1766
G1 X144.373 Y140.758 E8.21984
G1 X145.02 Y140.701 E8.26197
G1 X154.355 Y140.7 E8.86741
G1 X155.136 Y140.714 E8.91807
G1 X155.682 Y140.766 E8.95364
G1 X156.381 Y140.936 E9.0003
G1 X156.921 Y141.169 E9.03844
G1 X157.56 Y141.556 E9.08689
G1 X158.069 Y142.003 E9.13083
G1 X158.506 Y142.527 E9.17508
G1 X158.845 Y143.108 E9.21871
G1 X159.1 Y143.728 E9.26219
G1 X159.252 Y144.445 E9.30973
G1 X159.299 Y145.019 E9.34708
G1 X159.3 Y154.317 E9.95012
G1 X159.287 Y155.125 E10.00253
G1 X159.234 Y155.712 E10.04076
G1 X159.067 Y156.371 E10.08485
G1 X158.803 Y156.987 E10.12832
G1 X158.444 Y157.559 E10.17212
G1 X158.056 Y158.004 E10.21041
G1 X157.49 Y158.495 E10.25901
G1 X156.906 Y158.844 E10.30313
G1 X156.277 Y159.099 E10.34715
G1 X155.631 Y159.241 E10.39005
G1 X154.982 Y159.299 E10.43231
G1 X145.65 Y159.3 E11.03756
G1 X144.871 Y159.287 E11.08809
G1 X144.363 Y159.24 E11.12118
G1 X143.632 Y159.068 E11.16988
G1 X143.011 Y158.802 E11.2137
G1 X142.437 Y158.44 E11.25771
G1 X141.931 Y157.999 E11.30124
G1 X141.46 Y157.415 E11.3499
G1 X141.155 Y156.908 E11.38828
G1 X140.894 Y156.243 E11.43461
G1 X140.77 Y155.705 E11.47042
G1 X140.703 Y155.023 E11.51486
G1 X140.7 Y145.615 E12.12504
G1 X140.713 Y144.869 E12.17343
G1 X140.768 Y144.283 E12.21161
G1 X140.934 Y143.626 E12.25556
G1 X141.199 Y143.011 E12.29899
G1 X141.555 Y142.443 E12.34246
G1 X142.005 Y141.929 E12.38677
G1 F3900 E7.88677
G1 F600 Z0.5
;MESH:XYZ_Calibration_v2.stl
G0 F12000 X146.3 Y153.7 Z0.5
;TYPE:WALL-INNER
G1 F600 Z0.3
G1 F3900 E12.38677
G1 F2700 X153.7 Y153.7 E12.86672
G1 X153.7 Y146.3 E13.34666
G1 X146.3 Y146.3 E13.8266
G1 X146.3 Y153.7 E14.30655
G0 F12000 X145.78 Y154.22
G1 F2700 X154.22 Y154.22 E14.85394
G1 X154.22 Y145.78 E15.40134
G1 X145.78 Y145.78 E15.94873
G1 X145.78 Y154.22 E16.49613
G0 F12000 X145.26 Y154.74
;TYPE:WALL-OUTER
G1 F1800 X154.74 Y154.74 E17.11098
G1 X154.74 Y145.26 E17.72582
G1 X145.26 Y145.26 E18.34067
G1 X145.26 Y154.74 E18.95552
G1 F3900 E14.45552
G0 F12000 X145.87 Y154.13
G0 X146.796 Y153.204
;TYPE:SKIN
G1 F3900 E18.95552
G1 F2700 X146.796 Y146.796 E19.37112
G1 X153.204 Y146.796 E19.78673
G1 X153.204 Y153.204 E20.20233
G1 X146.796 Y153.204 E20.61794
G0 F12000 X147.315 Y152.463
G1 F2700 X147.535 Y152.683 E20.63812
G1 X148.271 Y152.683 E20.68585
G1 X147.315 Y151.728 E20.77349
G1 X147.315 Y150.992 E20.82123
G1 X149.006 Y152.683 E20.97633
G1 X149.741 Y152.683 E21.024
G1 X147.315 Y150.257 E21.24652
G1 X147.315 Y149.521 E21.29425
G1 X150.477 Y152.683 E21.58428
G1 X151.212 Y152.683 E21.63195
G1 X147.315 Y148.786 E21.98939
G1 X147.315 Y148.051 E22.03706
G1 X151.948 Y152.683 E22.46196
G1 X152.683 Y152.683 E22.50963
G1 X147.315 Y147.315 E23.00199
G1 X148.051 Y147.316 E23.04973
G1 X152.683 Y151.948 E23.47458
G1 X152.683 Y151.212 E23.52232
G1 X148.787 Y147.316 E23.87967
G1 X149.522 Y147.316 E23.92734
G1 X152.683 Y150.477 E24.21727
G1 X152.683 Y149.741 E24.26501
G1 X150.258 Y147.316 E24.48743
G1 X150.993 Y147.316 E24.5351
G1 X152.683 Y149.006 E24.69011
G1 X152.683 Y148.271 E24.73778
G1 X151.728 Y147.316 E24.82538
G1 X152.464 Y147.316 E24.87311
G1 X152.683 Y147.535 E24.8932
G1 F3900 E20.3932
;MESH:NONMESH
G0 F600 X152.683 Y147.535 Z0.45
G0 F12000 X146 Y154
;TIME_ELAPSED:19.536797
;LAYER:1
M106 S114.8
;TYPE:WALL-INNER
;MESH:XYZ_Calibration_v2.stl
G1 F3900 E24.8932
G1 F4050 X154 Y154 E25.09276
G1 X154 Y146 E25.29232
G1 X146 Y146 E25.49188
G1 X146 Y154 E25.69144
G0 F12000 X145.6 Y154.4
G1 F4050 X154.4 Y154.4 E25.91096
G1 X154.4 Y145.6 E26.13048
G1 X145.6 Y145.6 E26.34999
G1 X145.6 Y154.4 E26.56951
G0 F12000 X145.2 Y154.8
;TYPE:WALL-OUTER
G1 F1800 X154.8 Y154.8 E26.80898
G1 X154.8 Y145.2 E27.04846
G1 X145.2 Y145.2 E27.28793
G1 X145.2 Y154.8 E27.5274
G1 F3900 E23.0274
G0 F12000 X145.47 Y154.53
G0 X146.376 Y153.624
;TYPE:SKIN
G1 F3900 E27.5274
G1 F2700 X146.376 Y146.376 E27.7082
G1 X153.624 Y146.376 E27.88901
G1 X153.624 Y153.624 E28.06981
G1 X146.376 Y153.624 E28.25061
G1 F3900 E23.75061
G0 F12000 X146.775 Y146.775
G1 F3900 E28.25061
G1 F2700 X146.776 Y147.38 E28.2657
G1 X147.38 Y146.775 E28.28703
G1 X147.946 Y146.775 E28.30115
G1 X146.776 Y147.945 E28.34242
G1 X146.776 Y148.511 E28.35654
G1 X148.512 Y146.775 E28.41778
G1 X149.077 Y146.775 E28.43188
G1 X146.776 Y149.077 E28.51307
G1 X146.776 Y149.642 E28.52716
G1 X149.643 Y146.775 E28.6283
G1 X150.209 Y146.775 E28.64242
G1 X146.776 Y150.208 E28.76353
G1 X146.776 Y150.774 E28.77765
G1 X150.774 Y146.775 E28.91871
G1 X151.34 Y146.775 E28.93283
G1 X146.776 Y151.339 E29.09383
G1 X146.776 Y151.905 E29.10795
G1 X151.906 Y146.775 E29.28893
G1 X152.472 Y146.775 E29.30305
G1 X146.776 Y152.471 E29.50399
G1 X146.776 Y153.036 E29.51808
G1 X153.037 Y146.775 E29.73896
G1 X153.223 Y146.776 E29.7436
G1 X153.223 Y147.155 E29.75305
G1 X147.155 Y153.223 E29.96711
G1 X147.72 Y153.223 E29.98121
G1 X153.223 Y147.72 E30.17534
G1 X153.223 Y148.286 E30.18946
G1 X148.286 Y153.223 E30.36363
G1 X148.852 Y153.223 E30.37775
G1 X153.223 Y148.852 E30.53194
G1 X153.223 Y149.418 E30.54606
G1 X149.418 Y153.223 E30.6803
G1 X149.983 Y153.223 E30.69439
G1 X153.223 Y149.983 E30.80869
G1 X153.223 Y150.549 E30.82281
G1 X150.549 Y153.223 E30.91714
G1 X151.115 Y153.223 E30.93126
G1 X153.223 Y151.115 E31.00562
G1 X153.223 Y151.68 E31.01972
G1 X151.68 Y153.223 E31.07415
G1 X152.246 Y153.223 E31.08827
G1 X153.223 Y152.246 E31.12274
G1 X153.223 Y153.223 E31.14711
G0 F12000 X153.223 Y152.812
G1 F2700 X152.812 Y153.223 E31.16161
G1 F3900 E26.66161
;MESH:NONMESH
G0 F600 X152.812 Y153.223 Z0.6
G0 F12000 X146 Y154
;TIME_ELAPSED:29.185030
;LAYER:2
M106 S229.5
;TYPE:WALL-INNER
;MESH:XYZ_Calibration_v2.stl
G1 F3900 E31.16161
G1 F5400 X154 Y154 E31.36117
G1 X154 Y146 E31.56073
G1 X146 Y146 E31.76029
G1 X146 Y154 E31.95985
G0 F12000 X145.6 Y154.4
G1 F5400 X154.4 Y154.4 E32.17937
G1 X154.4 Y145.6 E32.39889
G1 X145.6 Y145.6 E32.6184
G1 X145.6 Y154.4 E32.83792
G0 F12000 X145.2 Y154.8
;TYPE:WALL-OUTER
G1 F1800 X154.8 Y154.8 E33.07739
G1 X154.8 Y145.2 E33.31686
G1 X145.2 Y145.2 E33.55634
G1 X145.2 Y154.8 E33.79581
G1 F3900 E29.29581
G0 F12000 X145.47 Y154.53
G0 X146.376 Y153.624
;TYPE:SKIN
G1 F3900 E33.79581
G1 F2700 X146.376 Y146.376 E33.97661
G1 X153.624 Y146.376 E34.15741
G1 X153.624 Y153.624 E34.33822
G1 X146.376 Y153.624 E34.51902
G0 F12000 X147.001 Y153.223
G1 F2700 X146.775 Y152.998 E34.52697
G1 X146.776 Y153.223 E34.53259
G1 X147.566 Y153.223 E34.55229
G1 X146.775 Y152.432 E34.5802
G1 X146.775 Y151.866 E34.59432
G1 X148.132 Y153.223 E34.64219
G1 X148.698 Y153.223 E34.65631
G1 X146.775 Y151.301 E34.72413
G1 X146.775 Y150.735 E34.73825
G1 X149.263 Y153.223 E34.82602
G1 X149.829 Y153.223 E34.84014
G1 X146.775 Y150.169 E34.94788
G1 X146.775 Y149.603 E34.962
G1 X150.395 Y153.223 E35.0897
G1 X150.96 Y153.223 E35.10379
G1 X146.775 Y149.038 E35.25143
G1 X146.775 Y148.472 E35.26555
G1 X151.526 Y153.223 E35.43315
G1 X152.092 Y153.223 E35.44727
G1 X146.775 Y147.906 E35.63485
G1 X146.775 Y147.341 E35.64894
G1 X152.657 Y153.223 E35.85644
G1 X153.223 Y153.223 E35.87056
G1 X146.775 Y146.775 E36.09803
G1 X147.341 Y146.776 E36.11215
G1 X153.223 Y152.657 E36.31964
G1 X153.223 Y152.092 E36.33373
G1 X147.907 Y146.776 E36.52127
G1 X148.473 Y146.776 E36.53539
G1 X153.223 Y151.526 E36.70296
G1 X153.223 Y150.96 E36.71707
G1 X149.039 Y146.776 E36.86468
G1 X149.604 Y146.776 E36.87877
G1 X153.223 Y150.395 E37.00644
G1 X153.223 Y149.829 E37.02056
G1 X150.17 Y146.776 E37.12826
G1 X150.736 Y146.776 E37.14238
G1 X153.223 Y149.263 E37.23012
G1 X153.223 Y148.698 E37.24421
G1 X151.301 Y146.776 E37.31201
G1 X151.867 Y146.776 E37.32613
G1 X153.223 Y148.132 E37.37397
G1 X153.223 Y147.566 E37.38809
G1 X152.433 Y146.776 E37.41596
G1 X152.998 Y146.776 E37.43005
G1 X153.223 Y147.001 E37.43799
G1 F3900 E32.93799
;MESH:NONMESH
G0 F600 X153.223 Y147.001 Z0.75
G0 F12000 X146 Y154
;TIME_ELAPSED:38.549952
;LAYER:3
;TYPE:WALL-INNER
;MESH:XYZ_Calibration_v2.stl
G1 F3900 E37.43799
G1 F5400 X154 Y154 E37.63755
G1 X154 Y146 E37.83711
G1 X146 Y146 E38.03667
G1 X146 Y154 E38.23623
G0 F12000 X145.6 Y154.4
G1 F5400 X154.4 Y154.4 E38.45575
G1 X154.4 Y145.6 E38.67527
G1 X145.6 Y145.6 E38.89478
G1 X145.6 Y154.4 E39.1143
G0 F12000 X145.2 Y154.8
;TYPE:WALL-OUTER
G1 F1800 X154.8 Y154.8 E39.35377
G1 X154.8 Y145.2 E39.59325
G1 X145.2 Y145.2 E39.83272
G1 X145.2 Y154.8 E40.07219
G1 F3900 E35.57219
G0 F12000 X145.47 Y154.53
G0 X146.376 Y153.624
;TYPE:SKIN
G1 F3900 E40.07219
G1 F2700 X146.376 Y146.376 E40.25299
G1 X153.624 Y146.376 E40.4338
G1 X153.624 Y153.624 E40.6146
G1 X146.376 Y153.624 E40.7954
G1 F3900 E36.2954
G0 F12000 X146.775 Y146.775
G1 F3900 E40.7954
G1 F2700 X146.776 Y147.38 E40.81049
G1 X147.38 Y146.775 E40.83182
G1 X147.946 Y146.775 E40.84594
G1 X146.776 Y147.945 E40.88721
G1 X146.776 Y148.511 E40.90133
G1 X148.512 Y146.775 E40.96257
G1 X149.077 Y146.775 E40.97667
G1 X146.776 Y149.077 E41.05786
G1 X146.776 Y149.642 E41.07195
G1 X149.643 Y146.775 E41.17309
G1 X150.209 Y146.775 E41.18721
G1 X146.776 Y150.208 E41.30832
G1 X146.776 Y150.774 E41.32244
G1 X150.774 Y146.775 E41.4635
G1 X151.34 Y146.775 E41.47762
G1 X146.776 Y151.339 E41.63862
G1 X146.776 Y151.905 E41.65274
G1 X151.906 Y146.775 E41.83372
G1 X152.472 Y146.775 E41.84784
G1 X146.776 Y152.471 E42.04878
G1 X146.776 Y153.036 E42.06287
G1 X153.037 Y146.775 E42.28375
G1 X153.223 Y146.776 E42.28839
G1 X153.223 Y147.155 E42.29784
G1 X147.155 Y153.223 E42.5119
G1 X147.72 Y153.223 E42.526
G1 X153.223 Y147.72 E42.72013
G1 X153.223 Y148.286 E42.73425
G1 X148.286 Y153.223 E42.90842
G1 X148.852 Y153.223 E42.92254
G1 X153.223 Y148.852 E43.07673
G1 X153.223 Y149.418 E43.09085
G1 X149.418 Y153.223 E43.22509
G1 X149.983 Y153.223 E43.23918
G1 X153.223 Y149.983 E43.35348
G1 X153.223 Y150.549 E43.3676
G1 X150.549 Y153.223 E43.46193
G1 X151.115 Y153.223 E43.47605
G1 X153.223 Y151.115 E43.55041
G1 X153.223 Y151.68 E43.56451
G1 X151.68 Y153.223 E43.61894
G1 X152.246 Y153.223 E43.63306
G1 X153.223 Y152.246 E43.66753
G1 X153.223 Y153.223 E43.6919
G0 F12000 X153.223 Y152.812
G1 F2700 X152.812 Y153.223 E43.7064
G1 F3900 E39.2064
;MESH:NONMESH
G0 F600 X152.812 Y153.223 Z0.9
G0 F12000 X146 Y154
;TIME_ELAPSED:48.187372
;LAYER:4
;TYPE:WALL-INNER
;MESH:XYZ_Calibration_v2.stl
G1 F3900 E43.7064
G1 F5400 X154 Y154 E43.90596
G1 X154 Y146 E44.10552
G1 X146 Y146 E44.30508
G1 X146 Y154 E44.50464
G0 F12000 X145.6 Y154.4
G1 F5400 X154.4 Y154.4 E44.72416
G1 X154.4 Y145.6 E44.94367
G1 X145.6 Y145.6 E45.16319
G1 X145.6 Y154.4 E45.38271
G0 F12000 X145.2 Y154.8
;TYPE:WALL-OUTER
G1 F1800 X154.8 Y154.8 E45.62218
G1 X154.8 Y145.2 E45.86165
G1 X145.2 Y145.2 E46.10113
G1 X145.2 Y154.8 E46.3406
G1 F3900 E41.8406
G0 F12000 X145.47 Y154.53
G0 X146.376 Y153.624
;TYPE:SKIN
G1 F3900 E46.3406
G1 F2700 X146.376 Y146.376 E46.5214
G1 X153.624 Y146.376 E46.7022
G1 X153.624 Y153.624 E46.88301
G1 X146.376 Y153.624 E47.06381
G0 F12000 X147.001 Y153.223
G1 F2700 X146.775 Y152.998 E47.07176
G1 X146.776 Y153.223 E47.07738
G1 X147.566 Y153.223 E47.09708
G1 X146.775 Y152.432 E47.12499
G1 X146.775 Y151.866 E47.13911
G1 X148.132 Y153.223 E47.18698
G1 X148.698 Y153.223 E47.2011
G1 X146.775 Y151.301 E47.26892
G1 X146.775 Y150.735 E47.28304
G1 X149.263 Y153.223 E47.37081
G1 X149.829 Y153.223 E47.38493
G1 X146.775 Y150.169 E47.49267
G1 X146.775 Y149.603 E47.50678
G1 X150.395 Y153.223 E47.63449
G1 X150.96 Y153.223 E47.64858
G1 X146.775 Y149.038 E47.79622
G1 X146.775 Y148.472 E47.81034
G1 X151.526 Y153.223 E47.97794
G1 X152.092 Y153.223 E47.99206
G1 X146.775 Y147.906 E48.17964
G1 X146.775 Y147.341 E48.19373
G1 X152.657 Y153.223 E48.40123
G1 X153.223 Y153.223 E48.41535
G1 X146.775 Y146.775 E48.64282
G1 X147.341 Y146.776 E48.65694
G1 X153.223 Y152.657 E48.86443
G1 X153.223 Y152.092 E48.87852
G1 X147.907 Y146.776 E49.06606
G1 X148.473 Y146.776 E49.08018
G1 X153.223 Y151.526 E49.24775
G1 X153.223 Y150.96 E49.26186
G1 X149.039 Y146.776 E49.40947
G1 X149.604 Y146.776 E49.42356
G1 X153.223 Y150.395 E49.55123
