;FLAVOR:Marlin
;TIME:298
;Filament used: 0.385091m
;Layer height: 0.4
;MINX:88.2
;MINY:88.2
;MINZ:0.3
;MAXX:106.8
;MAXY:106.8
;MAXZ:9.9
;Generated with Cura_SteamEngine 5.2.1
M140 S60
M105
M190 S60
M104 S230
M105
M109 S230
M82 ;absolute extrusion mode
G28; Início todos os eixos
M420 S1
G1 Z15.0 F1000; Mover para cima 15mm a 1000mm / min
G92 E0; Redefina o comprimento da extrusora para zero
G1 X0.0 Y0.0 F1000.0; vá para a borda da área de impressão
G1 Z0.200 F1000.0; Vá para a posição Iniciar Z
G1 X60.0 E9.0 F1000.0; linha de introdução
G1 X100.0 E21.5 F1000.0; linha de introdução
G92 E0.0; redefinir a posição da distância da extrusora
G92 E0
G92 E0
G1 F4200 E-4.5
;LAYER_COUNT:25
;LAYER:0
M107
G0 F12000 X105.39 Y105.667 Z0.3
;TYPE:SKIRT
G1 F4200 E0
G1 F1500 X104.931 Y106.032 E0.03499
G1 X104.427 Y106.331 E0.06996
G1 X103.887 Y106.558 E0.10491
G1 X103.321 Y106.71 E0.13988
G1 X102.513 Y106.8 E0.18839
G1 X93.152 Y106.8 E0.74695
G1 X92.454 Y106.791 E0.7886
G1 X91.869 Y106.743 E0.82362
G1 X91.297 Y106.617 E0.85857
G1 X90.747 Y106.413 E0.89358
G1 X90.23 Y106.137 E0.92855
G1 X89.755 Y105.794 E0.9635
G1 X89.332 Y105.388 E0.99849
G1 X88.967 Y104.929 E1.03348
G1 X88.668 Y104.425 E1.06845
G1 X88.441 Y103.885 E1.1034
G1 X88.289 Y103.318 E1.13843
G1 X88.2 Y102.507 E1.18711
G1 X88.2 Y93.116 E1.74746
G1 X88.209 Y92.451 E1.78714
G1 X88.257 Y91.867 E1.82211
G1 X88.384 Y91.294 E1.85712
G1 X88.588 Y90.745 E1.89207
G1 X88.864 Y90.228 E1.92704
G1 X89.208 Y89.753 E1.96204
G1 X89.614 Y89.33 E1.99702
G1 X90.073 Y88.966 E2.03197
G1 X90.577 Y88.667 E2.06694
G1 X91.118 Y88.44 E2.10195
G1 X91.684 Y88.289 E2.1369
G1 X92.487 Y88.2 E2.18511
G1 X101.855 Y88.2 E2.74409
G1 X102.553 Y88.21 E2.78574
G1 X103.137 Y88.259 E2.82071
G1 X103.709 Y88.386 E2.85567
G1 X104.258 Y88.59 E2.89062
G1 X104.775 Y88.867 E2.92561
G1 X105.249 Y89.211 E2.96056
G1 X105.672 Y89.617 E2.99554
G1 X106.036 Y90.077 E3.03055
G1 X106.334 Y90.582 E3.06553
G1 X106.561 Y91.122 E3.10049
G1 X106.712 Y91.689 E3.1355
G1 X106.8 Y92.489 E3.18352
G1 X106.8 Y101.817 E3.74011
G1 X106.791 Y102.544 E3.78349
G1 X106.743 Y103.128 E3.81846
G1 X106.617 Y103.701 E3.85346
G1 X106.414 Y104.251 E3.88845
G1 X106.139 Y104.768 E3.92339
G1 X105.795 Y105.243 E3.95838
G1 X105.39 Y105.667 E3.99337
G0 F12000 X104.884 Y105.417
G1 F1500 X104.434 Y105.733 E4.02618
G1 X103.943 Y105.981 E4.059
G1 X103.422 Y106.155 E4.09178
G1 X102.881 Y106.251 E4.12456
G1 X102.276 Y106.279 E4.1607
G1 X93.158 Y106.28 E4.70476
G1 X92.46 Y106.271 E4.74641
G1 X91.913 Y106.224 E4.77917
G1 X91.378 Y106.098 E4.81196
G1 X90.867 Y105.896 E4.84475
G1 X90.39 Y105.622 E4.87757
G1 X89.959 Y105.281 E4.91037
G1 X89.581 Y104.882 E4.94316
G1 X89.266 Y104.432 E4.97594
G1 X89.018 Y103.941 E5.00876
G1 X88.845 Y103.42 E5.04152
G1 X88.749 Y102.879 E5.0743
G1 X88.721 Y102.26 E5.11128
G1 X88.72 Y93.123 E5.65647
G1 X88.729 Y92.458 E5.69615
G1 X88.777 Y91.91 E5.72898
G1 X88.903 Y91.375 E5.76177
G1 X89.105 Y90.865 E5.7945
G1 X89.38 Y90.388 E5.82736
G1 X89.72 Y89.957 E5.86011
G1 X90.12 Y89.58 E5.89291
G1 X90.57 Y89.264 E5.92572
G1 X91.061 Y89.017 E5.95851
G1 X91.582 Y88.844 E5.99127
G1 X92.124 Y88.749 E6.0241
G1 X92.724 Y88.721 E6.05994
G1 X101.847 Y88.72 E6.6043
G1 X102.545 Y88.73 E6.64596
G1 X103.093 Y88.778 E6.67878
G1 X103.627 Y88.905 E6.71153
G1 X104.138 Y89.108 E6.74434
G1 X104.614 Y89.383 E6.77714
G1 X105.045 Y89.723 E6.8099
G1 X105.422 Y90.123 E6.84269
G1 X105.737 Y90.573 E6.87547
G1 X105.984 Y91.065 E6.90832
G1 X106.156 Y91.586 E6.94106
G1 X106.252 Y92.128 E6.9739
G1 X106.279 Y92.724 E7.0095
G1 X106.28 Y101.811 E7.55171
G1 X106.271 Y102.538 E7.59509
G1 X106.224 Y103.085 E7.62785
G1 X106.098 Y103.62 E7.66065
G1 X105.896 Y104.131 E7.69343
G1 X105.623 Y104.608 E7.72623
G1 X105.283 Y105.04 E7.75903
G1 X104.884 Y105.417 E7.79178
G0 F12000 X104.381 Y105.148
M104 S185
G1 F1500 X103.943 Y105.41 E7.82224
G1 X103.47 Y105.601 E7.85267
G1 X102.972 Y105.715 E7.88316
G1 X102.482 Y105.759 E7.91251
G1 X93.165 Y105.76 E8.46845
G1 X92.467 Y105.751 E8.5101
G1 X91.959 Y105.704 E8.54054
G1 X91.464 Y105.579 E8.571
G1 X90.995 Y105.378 E8.60145
G1 X90.563 Y105.106 E8.63191
G1 X90.179 Y104.771 E8.66232
G1 X89.852 Y104.379 E8.69278
G1 X89.589 Y103.941 E8.72326
G1 X89.399 Y103.468 E8.75368
G1 X89.284 Y102.971 E8.78412
G1 X89.241 Y102.476 E8.81376
G1 X89.24 Y93.13 E9.37143
G1 X89.249 Y92.465 E9.41111
G1 X89.296 Y91.957 E9.44155
G1 X89.422 Y91.462 E9.47203
G1 X89.623 Y90.993 E9.50247
G1 X89.895 Y90.561 E9.53294
G1 X90.231 Y90.177 E9.56338
G1 X90.623 Y89.85 E9.59384
G1 X91.061 Y89.588 E9.62429
G1 X91.534 Y89.398 E9.65471
G1 X92.031 Y89.284 E9.68514
G1 X92.52 Y89.241 E9.71443
G1 X101.84 Y89.24 E10.27054
G1 X102.538 Y89.25 E10.31219
G1 X103.046 Y89.298 E10.34264
G1 X103.54 Y89.423 E10.37304
G1 X104.009 Y89.625 E10.40351
G1 X104.441 Y89.897 E10.43397
G1 X104.825 Y90.234 E10.46446
G1 X105.151 Y90.626 E10.49488
G1 X105.413 Y91.064 E10.52533
G1 X105.603 Y91.537 E10.55575
G1 X105.716 Y92.035 E10.58622
G1 X105.759 Y92.519 E10.61521
G1 X105.76 Y101.804 E11.16924
G1 X105.751 Y102.531 E11.21262
G1 X105.705 Y103.04 E11.24311
G1 X105.58 Y103.534 E11.27352
G1 X105.379 Y104.003 E11.30397
G1 X105.107 Y104.436 E11.33448
G1 X104.772 Y104.82 E11.36488
G1 X104.381 Y105.148 E11.39534
G1 F4200 E6.89534
;MESH:xyzCalibration_cube.stl
G0 F12000 X102.086 Y103.165
G0 X102.086 Y102.086
G0 X93.8 Y101.2
;TYPE:WALL-INNER
G1 F4200 E11.39534
G1 F1500 X101.2 Y101.2 E11.83688
G1 X101.2 Y97.5 E12.05766
G1 X101.2 Y93.8 E12.27843
G1 X93.8 Y93.8 E12.71998
G1 X93.8 Y101.2 E13.16153
G0 F12000 X93.28 Y101.72
G1 F1500 X101.72 Y101.72 E13.66513
G1 X101.72 Y97.5 E13.91693
G1 X101.72 Y93.28 E14.16874
G1 X93.28 Y93.28 E14.67234
G1 X93.28 Y101.72 E15.17594
G0 F12000 X92.76 Y102.24
;TYPE:WALL-OUTER
G1 F1500 X102.24 Y102.24 E15.7416
G1 X102.24 Y97.5 E16.02443
G1 X102.24 Y92.76 E16.30726
G1 X92.76 Y92.76 E16.87292
G1 X92.76 Y102.24 E17.43858
G0 F12000 X92.96 Y102.24
G0 X93.37 Y101.63
G0 X93.96 Y100.7
G0 X94.3 Y100.7
;TYPE:SKIN
G1 F1500 X100.7 Y100.7 E17.82046
G1 X100.7 Y97.5 E18.0114
G1 X100.7 Y94.3 E18.20234
G1 X94.3 Y94.3 E18.58422
G1 X94.3 Y100.7 E18.9661
G0 F12000 X93.96 Y100.7
G0 X95.291 Y101.04
G0 X95.291 Y100.438
G1 F1500 X94.559 Y99.707 E19.02783
G0 F12000 X94.559 Y98.972
G1 F1500 X96.026 Y100.438 E19.15158
G0 F12000 X96.761 Y100.438
G1 F1500 X94.559 Y98.236 E19.33739
G0 F12000 X94.559 Y97.501
G1 F1500 X97.497 Y100.438 E19.58527
G0 F12000 X98.232 Y100.438
G1 F1500 X94.559 Y96.766 E19.89517
G0 F12000 X94.559 Y96.03
G1 F1500 X98.968 Y100.438 E20.26718
G0 F12000 X99.703 Y100.438
G1 F1500 X94.559 Y95.295 E20.70121
G0 F12000 X94.559 Y94.559
G1 F1500 X100.439 Y100.439 E21.19739
G0 F12000 X100.439 Y99.704
G1 F1500 X95.295 Y94.559 E21.6315
G0 F12000 X96.03 Y94.559
G1 F1500 X100.439 Y98.968 E22.00355
G0 F12000 X100.439 Y98.233
G1 F1500 X96.766 Y94.559 E22.31354
G0 F12000 X97.501 Y94.559
G1 F1500 X100.439 Y97.498 E22.5615
G0 F12000 X100.439 Y96.762
G1 F1500 X98.236 Y94.559 E22.7474
G0 F12000 X98.972 Y94.559
G1 F1500 X100.439 Y96.027 E22.87123
G0 F12000 X100.439 Y95.291
G1 F1500 X99.707 Y94.559 E22.933
G0 F12000 X99.707 Y93.82
G1 F4200 E18.433
;MESH:NONMESH
G0 F600 X99.707 Y93.82 Z0.7
G0 F12000 X94.032 Y94.032
G0 X93.5 Y101.5
;TIME_ELAPSED:20.020470
;LAYER:1
M106 S127.5
;TYPE:WALL-INNER
;MESH:xyzCalibration_cube.stl
G1 F4200 E22.933
G1 F3285 X101.5 Y101.5 E23.42259
G1 X101.5 Y93.5 E23.91218
G1 X93.5 Y93.5 E24.40177
G1 X93.5 Y101.5 E24.89136
G0 F12000 X93.1 Y101.9
G1 F3285 X101.9 Y101.9 E25.42991
G1 X101.9 Y93.1 E25.96846
G1 X93.1 Y93.1 E26.507
G1 X93.1 Y101.9 E27.04555
G0 F12000 X92.7 Y102.3
;TYPE:WALL-OUTER
G1 F1182.6 X102.3 Y102.3 E27.63306
G1 X102.3 Y92.7 E28.22057
G1 X92.7 Y92.7 E28.80807
G1 X92.7 Y102.3 E29.39558
G0 F12000 X92.9 Y102.3
G0 X93.37 Y101.63
G0 X93.88 Y101.12
;TYPE:SKIN
G1 F1314 X101.12 Y101.12 E29.83866
G1 X101.12 Y97.5 E30.0602
G1 X101.12 Y93.88 E30.28174
G1 X93.88 Y93.88 E30.72481
G1 X93.88 Y101.12 E31.16789
G0 F12000 X94.079 Y94.293
G1 F1314 X94.293 Y94.079 E31.18641
G0 F12000 X94.859 Y94.079
G1 F1314 X94.079 Y94.859 E31.25392
G0 F12000 X94.079 Y95.424
G1 F1314 X95.424 Y94.079 E31.37033
G0 F12000 X95.99 Y94.079
G1 F1314 X94.079 Y95.99 E31.53572
G0 F12000 X94.079 Y96.556
G1 F1314 X96.556 Y94.079 E31.7501
G0 F12000 X97.121 Y94.079
G1 F1314 X94.079 Y97.121 E32.01338
G0 F12000 X94.079 Y97.687
G1 F1314 X97.687 Y94.079 E32.32564
G0 F12000 X98.253 Y94.079
G1 F1314 X94.079 Y98.253 E32.6869
G0 F12000 X94.079 Y98.818
G1 F1314 X98.818 Y94.079 E33.09705
G0 F12000 X99.384 Y94.079
G1 F1314 X94.079 Y99.384 E33.55618
G0 F12000 X94.079 Y99.95
G1 F1314 X99.95 Y94.079 E34.06431
G0 F12000 X100.515 Y94.079
G1 F1314 X94.079 Y100.515 E34.62133
G0 F12000 X94.241 Y100.919
G1 F1314 X100.918 Y94.242 E35.19921
G0 F12000 X100.918 Y94.808
G1 F1314 X94.807 Y100.919 E35.7281
G0 F12000 X95.373 Y100.919
G1 F1314 X100.918 Y95.373 E36.20806
G0 F12000 X100.918 Y95.939
G1 F1314 X95.938 Y100.919 E36.63907
G0 F12000 X96.504 Y100.919
G1 F1314 X100.918 Y96.505 E37.02109
G0 F12000 X100.918 Y97.07
G1 F1314 X97.07 Y100.919 E37.35417
G0 F12000 X97.635 Y100.919
G1 F1314 X100.918 Y97.636 E37.6383
G0 F12000 X100.918 Y98.202
G1 F1314 X98.201 Y100.919 E37.87346
G0 F12000 X98.767 Y100.919
G1 F1314 X100.918 Y98.767 E38.05966
G0 F12000 X100.918 Y99.333
G1 F1314 X99.332 Y100.919 E38.19693
G0 F12000 X99.898 Y100.919
G1 F1314 X100.918 Y99.899 E38.28521
G0 F12000 X100.918 Y100.465
G1 F1314 X100.464 Y100.919 E38.3245
G1 F4200 E33.8245
;MESH:NONMESH
G0 F600 X100.464 Y100.919 Z1.1
G0 F12000 X93.5 Y101.5
;TIME_ELAPSED:30.906785
;LAYER:2
M106 S255
;TYPE:WALL-INNER
;MESH:xyzCalibration_cube.stl
G1 F4200 E38.3245
G1 F5116.7 X101.5 Y101.5 E38.81409
G1 X101.5 Y97.5 E39.05888
G1 X101.5 Y93.5 E39.30368
G1 X93.5 Y93.5 E39.79327
G1 X93.5 Y101.5 E40.28286
G0 F12000 X93.1 Y101.9
G1 F5116.7 X101.9 Y101.9 E40.82141
G1 X101.9 Y97.5 E41.09068
G1 X101.9 Y93.1 E41.35995
G1 X93.1 Y93.1 E41.8985
G1 X93.1 Y101.9 E42.43705
G0 F12000 X92.7 Y102.3
;TYPE:WALL-OUTER
G1 F1023.3 X102.3 Y102.3 E43.02456
G1 X102.3 Y97.5 E43.31831
G1 X102.3 Y92.7 E43.61206
G1 X92.7 Y92.7 E44.19957
G1 X92.7 Y102.3 E44.78708
G0 F12000 X92.9 Y102.3
G0 X93.37 Y101.63
G0 X93.88 Y101.12
;TYPE:SKIN
G1 F1279.2 X101.12 Y101.12 E45.23016
G1 X101.12 Y97.5 E45.45169
G1 X101.12 Y93.88 E45.67323
G1 X93.88 Y93.88 E46.11631
G1 X93.88 Y101.12 E46.55939
G0 F12000 X94.696 Y100.918
G1 F1279.2 X94.079 Y100.302 E46.61275
G0 F12000 X94.079 Y99.736
G1 F1279.2 X95.262 Y100.918 E46.71509
G0 F12000 X95.827 Y100.918
G1 F1279.2 X94.079 Y99.171 E46.86633
G0 F12000 X94.079 Y98.605
G1 F1279.2 X96.393 Y100.918 E47.06656
G0 F12000 X96.959 Y100.918
G1 F1279.2 X94.079 Y98.039 E47.31578
G0 F12000 X94.079 Y97.473
G1 F1279.2 X97.524 Y100.918 E47.61393
G0 F12000 X98.09 Y100.918
G1 F1279.2 X94.079 Y96.908 E47.96103
G0 F12000 X94.079 Y96.342
G1 F1279.2 X98.656 Y100.918 E48.35712
G0 F12000 X99.221 Y100.918
G1 F1279.2 X94.079 Y95.776 E48.80215
G0 F12000 X94.079 Y95.211
G1 F1279.2 X99.787 Y100.918 E49.29612
G0 F12000 X100.353 Y100.918
G1 F1279.2 X94.079 Y94.645 E49.83908
G0 F12000 X94.079 Y94.079
G1 F1279.2 X100.919 Y100.919 E50.43107
G0 F12000 X100.919 Y100.354
G1 F1279.2 X94.645 Y94.079 E50.97412
G0 F12000 X95.211 Y94.079
G1 F1279.2 X100.919 Y99.788 E51.46817
G0 F12000 X100.919 Y99.222
G1 F1279.2 X95.776 Y94.079 E51.91329
G0 F12000 X96.342 Y94.079
G1 F1279.2 X100.919 Y98.656 E52.30942
G0 F12000 X100.919 Y98.091
G1 F1279.2 X96.908 Y94.079 E52.65661
G0 F12000 X97.473 Y94.079
G1 F1279.2 X100.919 Y97.525 E52.95485
G0 F12000 X100.919 Y96.959
G1 F1279.2 X98.039 Y94.079 E53.20411
G0 F12000 X98.605 Y94.079
G1 F1279.2 X100.919 Y96.394 E53.40443
G0 F12000 X100.919 Y95.828
G1 F1279.2 X99.171 Y94.079 E53.55575
G0 F12000 X99.736 Y94.079
G1 F1279.2 X100.919 Y95.262 E53.65814
G0 F12000 X100.919 Y94.697
G1 F1279.2 X100.302 Y94.079 E53.71158
G1 X100.232 Y94.009
G1 F4200 E49.21158
;MESH:NONMESH
G0 F600 X100.232 Y94.009 Z1.5
G0 F12000 X93.5 Y101.5
;TIME_ELAPSED:41.837171
;LAYER:3
;TYPE:WALL-INNER
;MESH:xyzCalibration_cube.stl
G1 F4200 E53.71158
G1 F5140.7 X101.5 Y101.5 E54.20117
G1 X101.5 Y97.5 E54.44597
G1 X101.5 Y93.5 E54.69076
G1 X93.5 Y93.5 E55.18035
G1 X93.5 Y101.5 E55.66994
G0 F12000 X93.1 Y101.9
G1 F5140.7 X101.9 Y101.9 E56.20849
G1 X101.9 Y97.5 E56.47776
G1 X101.9 Y93.1 E56.74704
G1 X93.1 Y93.1 E57.28559
G1 X93.1 Y101.9 E57.82413
G0 F12000 X92.7 Y102.3
;TYPE:WALL-OUTER
G1 F1028.1 X102.3 Y102.3 E58.41164
G1 X102.3 Y97.5 E58.70539
G1 X102.3 Y92.7 E58.99915
G1 X92.7 Y92.7 E59.58665
G1 X92.7 Y102.3 E60.17416
G0 F12000 X92.9 Y102.3
G0 X93.37 Y101.63
G0 X93.88 Y101.12
;TYPE:SKIN
G1 F1285.2 X101.12 Y101.12 E60.61724
G1 X101.12 Y97.5 E60.83878
G1 X101.12 Y93.88 E61.06032
G1 X93.88 Y93.88 E61.5034
G1 X93.88 Y101.12 E61.94647
G0 F12000 X94.079 Y94.293
G1 F1285.2 X94.293 Y94.079 E61.965
G0 F12000 X94.859 Y94.079
G1 F1285.2 X94.079 Y94.859 E62.0325
G0 F12000 X94.079 Y95.424
G1 F1285.2 X95.424 Y94.079 E62.14891
G0 F12000 X95.99 Y94.079
G1 F1285.2 X94.079 Y95.99 E62.3143
G0 F12000 X94.079 Y96.556
G1 F1285.2 X96.556 Y94.079 E62.52868
G0 F12000 X97.121 Y94.079
G1 F1285.2 X94.079 Y97.121 E62.79196
G0 F12000 X94.079 Y97.687
G1 F1285.2 X97.687 Y94.079 E63.10423
G0 F12000 X98.253 Y94.079
G1 F1285.2 X94.079 Y98.253 E63.46548
G0 F12000 X94.079 Y98.818
G1 F1285.2 X98.818 Y94.079 E63.87563
G0 F12000 X99.384 Y94.079
G1 F1285.2 X94.079 Y99.384 E64.33477
G0 F12000 X94.079 Y99.95
G1 F1285.2 X99.95 Y94.079 E64.84289
G0 F12000 X100.515 Y94.079
G1 F1285.2 X94.079 Y100.515 E65.39991
G0 F12000 X94.241 Y100.919
G1 F1285.2 X100.918 Y94.242 E65.97779
G0 F12000 X100.918 Y94.808
G1 F1285.2 X94.807 Y100.919 E66.50669
G0 F12000 X95.373 Y100.919
G1 F1285.2 X100.918 Y95.373 E66.98664
G0 F12000 X100.918 Y95.939
G1 F1285.2 X95.938 Y100.919 E67.41765
G0 F12000 X96.504 Y100.919
G1 F1285.2 X100.918 Y96.505 E67.79967
G0 F12000 X100.918 Y97.07
G1 F1285.2 X97.07 Y100.919 E68.13275
G0 F12000 X97.635 Y100.919
G1 F1285.2 X100.918 Y97.636 E68.41689
G0 F12000 X100.918 Y98.202
G1 F1285.2 X98.201 Y100.919 E68.65204
G0 F12000 X98.767 Y100.919
G1 F1285.2 X100.918 Y98.767 E68.83824
G0 F12000 X100.918 Y99.333
G1 F1285.2 X99.332 Y100.919 E68.97551
G0 F12000 X99.898 Y100.919
G1 F1285.2 X100.918 Y99.899 E69.06379
G0 F12000 X100.918 Y100.465
G1 F1285.2 X100.464 Y100.919 E69.10308
G1 F4200 E64.60308
;MESH:NONMESH
G0 F600 X100.464 Y100.919 Z1.9
G0 F12000 X93.5 Y101.5
;TIME_ELAPSED:52.776161
;LAYER:4
;TYPE:WALL-INNER
;MESH:xyzCalibration_cube.stl
G1 F4200 E69.10308
G1 F5190.5 X101.5 Y101.5 E69.59267
G1 X101.5 Y97.5 E69.83747
G1 X101.5 Y93.5 E70.08226
G1 X93.5 Y93.5 E70.57185
G1 X93.5 Y101.5 E71.06144
G0 F12000 X93.1 Y101.9
G1 F5190.5 X101.9 Y101.9 E71.59999
G1 X101.9 Y97.5 E71.86926
G1 X101.9 Y93.1 E72.13853
G1 X93.1 Y93.1 E72.67708
G1 X93.1 Y101.9 E73.21563
G0 F12000 X92.7 Y102.3
;TYPE:WALL-OUTER
G1 F1038.1 X102.3 Y102.3 E73.80314
G1 X102.3 Y97.5 E74.09689
G1 X102.3 Y92.7 E74.39064
G1 X92.7 Y92.7 E74.97815
G1 X92.7 Y102.3 E75.56566
G0 F12000 X92.9 Y102.3
G0 X93.37 Y101.63
G0 X93.88 Y101.12
;TYPE:SKIN
G1 F1297.6 X101.12 Y101.12 E76.00874
G1 X101.12 Y97.5 E76.23028
G1 X101.12 Y93.88 E76.45182
G1 X93.88 Y93.88 E76.89489
G1 X93.88 Y101.12 E77.33797
G0 F12000 X94.696 Y100.918
G1 F1297.6 X94.079 Y100.302 E77.39133
G0 F12000 X94.079 Y99.736
G1 F1297.6 X95.262 Y100.918 E77.49367
G0 F12000 X95.827 Y100.918
G1 F1297.6 X94.079 Y99.171 E77.64491
G0 F12000 X94.079 Y98.605
G1 F1297.6 X96.393 Y100.918 E77.84514
G0 F12000 X96.959 Y100.918
G1 F1297.6 X94.079 Y98.039 E78.09436
G0 F12000 X94.079 Y97.473
G1 F1297.6 X97.524 Y100.918 E78.39252
G0 F12000 X98.09 Y100.918
