;FLAVOR:Marlin
;TIME:688
;Filament used: 0.705542m
;Layer height: 0.3
;MINX:19.3
;MINY:16.8
;MINZ:0.3
;MAXX:175.7
;MAXY:178.2
;MAXZ:0.3
;Generated with Cura_SteamEngine 5.3.0
M140 S60
M105
M190 S60
M104 S185
M105
M109 S185
M82 ;absolute extrusion mode
G28; Início todos os eixos
M420 S1
G1 Z15.0 F1000; Mover para cima 15mm a 1000mm / min
G92 E0; Redefina o comprimento da extrusora para zero
G1 X0.0 Y0.0 F1000.0; vá para a borda da área de impressão
G1 Z0.200 F1000.0; Vá para a posição Iniciar Z
G1 X60.0 E9.0 F1000.0; linha de introdução
G1 X100.0 E21.5 F1000.0; linha de introdução
G92 E0.0; redefinir a posição da distância da extrusora
G92 E0
G92 E0
G1 F1500 E-6.5
;LAYER_COUNT:1
;LAYER:0
M107
G0 F3600 X20.289 Y17.704 Z0.3
;TYPE:SKIRT
G1 F1500 E0
G1 F1350 X20.68 Y17.383 E0.02524
G1 X21.117 Y17.128 E0.05048
G1 X21.588 Y16.944 E0.07571
G1 X22.082 Y16.838 E0.10092
G1 X22.527 Y16.801 E0.12319
G1 X171.839 Y16.8 E7.5724
G1 X172.537 Y16.81 E7.60723
G1 X173.04 Y16.857 E7.63243
G1 X173.53 Y16.983 E7.65767
G1 X173.994 Y17.185 E7.68292
G1 X174.42 Y17.457 E7.70814
G1 X174.798 Y17.792 E7.73333
G1 X175.118 Y18.183 E7.75854
G1 X175.373 Y18.62 E7.78378
G1 X175.556 Y19.091 E7.80899
G1 X175.663 Y19.585 E7.83421
G1 X175.699 Y20.24 E7.86694
G1 X175.7 Y174.304 E15.55322
G1 X175.691 Y175.031 E15.5895
G1 X175.645 Y175.534 E15.61469
G1 X175.52 Y176.024 E15.63992
G1 X175.319 Y176.488 E15.66515
G1 X175.048 Y176.915 E15.69038
G1 X174.713 Y177.294 E15.71562
G1 X174.323 Y177.615 E15.74082
G1 X173.887 Y177.871 E15.76604
G1 X173.416 Y178.054 E15.79125
G1 X172.922 Y178.162 E15.81648
G1 X172.26 Y178.199 E15.84956
G1 X23.166 Y178.2 E23.28789
G1 X22.468 Y178.191 E23.32272
G1 X21.964 Y178.144 E23.34797
G1 X21.474 Y178.019 E23.3732
G1 X21.01 Y177.818 E23.39843
G1 X20.584 Y177.547 E23.42362
G1 X20.205 Y177.212 E23.44885
G1 X19.884 Y176.821 E23.47409
G1 X19.629 Y176.385 E23.49929
G1 X19.445 Y175.914 E23.52452
G1 X19.338 Y175.42 E23.54974
G1 X19.301 Y174.967 E23.57241
G1 X19.3 Y20.631 E31.27226
G1 X19.309 Y19.966 E31.30544
G1 X19.356 Y19.462 E31.3307
G1 X19.482 Y18.973 E31.35589
G1 X19.683 Y18.509 E31.38112
G1 X19.954 Y18.082 E31.40635
G1 X20.289 Y17.704 E31.43155
G1 F1500 E24.93155
;MESH:Trinus_calibration.stl
G0 F3600 X28.35 Y25.85
G0 X28.322 Y94.803
G0 X94.618 Y95.346
;TYPE:WALL-INNER
G1 F1500 E31.43155
G1 F1350 X94.375 Y95.375 E31.44376
G1 X28.662 Y95.372 E34.72219
G1 X28.398 Y95.312 E34.7357
G1 X28.149 Y95.176 E34.74986
G1 X27.867 Y94.846 E34.77151
G1 X27.78 Y94.622 E34.7835
G1 X27.75 Y94.375 E34.79591
G1 X27.75 Y26.25 E38.19468
G1 X27.787 Y25.979 E38.20833
G1 X27.891 Y25.736 E38.22152
G1 X28.042 Y25.542 E38.23378
G1 X28.236 Y25.391 E38.24605
G1 X28.479 Y25.287 E38.25923
G1 X28.75 Y25.25 E38.27288
G1 X94.375 Y25.25 E41.54692
G1 X94.622 Y25.28 E41.55934
G1 X94.846 Y25.367 E41.57133
G1 X95.176 Y25.649 E41.59298
G1 X95.312 Y25.898 E41.60714
G1 X95.375 Y26.122 E41.61875
G1 X95.372 Y94.463 E45.02829
G1 X95.27 Y94.823 E45.04696
G1 X95.176 Y94.975 E45.05588
G1 X94.976 Y95.176 E45.07002
G1 X94.618 Y95.346 E45.08979
G0 F3600 X94.485 Y94.975
G1 F1350 X28.697 Y94.973 E48.37197
G1 X28.389 Y94.856 E48.38841
G1 X28.22 Y94.658 E48.4014
G1 X28.15 Y94.476 E48.41112
G1 X28.15 Y26.138 E51.82052
G1 X28.234 Y25.942 E51.83116
G1 X28.442 Y25.734 E51.84584
G1 X28.75 Y25.65 E51.86176
G1 X94.476 Y25.65 E55.14085
G1 X94.658 Y25.72 E55.15057
G1 X94.856 Y25.889 E55.16356
G1 X94.937 Y26.039 E55.17207
G1 X94.975 Y26.25 E55.18276
G1 X94.973 Y94.428 E58.58418
G1 X94.912 Y94.644 E58.59538
G1 X94.736 Y94.856 E58.60912
G1 X94.485 Y94.975 E58.62298
G0 F3600 X94.485 Y95.275
G0 X166.851 Y95.275
G0 X166.851 Y95.176
G1 F1350 X166.602 Y95.312 E58.63714
G1 X166.378 Y95.375 E58.64874
G1 X100.537 Y95.372 E61.93356
G1 X100.177 Y95.27 E61.95223
G1 X100.025 Y95.176 E61.96115
G1 X99.824 Y94.975 E61.97533
G1 X99.73 Y94.823 E61.98425
G1 X99.628 Y94.463 E62.00291
G1 X99.625 Y26.122 E65.41246
G1 X99.688 Y25.898 E65.42407
G1 X99.824 Y25.649 E65.43822
G1 X100.154 Y25.367 E65.45988
G1 X100.378 Y25.28 E65.47187
G1 X100.625 Y25.25 E65.48428
G1 X166.25 Y25.25 E68.75833
G1 X166.521 Y25.287 E68.77197
G1 X166.764 Y25.391 E68.78516
G1 X166.958 Y25.542 E68.79742
G1 X167.109 Y25.736 E68.80969
G1 X167.213 Y25.978 E68.82283
G1 X167.25 Y26.25 E68.83653
G1 X167.25 Y94.375 E72.2353
G1 X167.22 Y94.622 E72.24771
G1 X167.133 Y94.846 E72.2597
G1 X166.851 Y95.176 E72.28135
G0 F3600 X166.851 Y95.275
G0 X99.797 Y95.203
G0 X100.144 Y94.735
G1 F1350 X100.027 Y94.428 E72.29775
G1 X100.025 Y26.175 E75.7029
G1 X100.144 Y25.889 E75.71836
G1 X100.342 Y25.72 E75.73134
G1 X100.524 Y25.65 E75.74107
G1 X166.362 Y25.65 E79.02574
G1 X166.558 Y25.734 E79.03638
G1 X166.766 Y25.942 E79.05106
G1 X166.85 Y26.25 E79.06698
G1 X166.85 Y94.476 E82.47079
G1 X166.78 Y94.658 E82.48052
G1 X166.611 Y94.856 E82.49351
G1 X166.461 Y94.937 E82.50201
G1 X166.25 Y94.975 E82.51271
G1 X100.572 Y94.973 E85.7894
G1 X100.356 Y94.912 E85.8006
G1 X100.144 Y94.735 E85.81437
G0 F3600 X99.725 Y94.735
G0 X99.797 Y169.578
G0 X100.154 Y169.633
G1 F1350 X99.824 Y169.351 E85.83603
G1 X99.688 Y169.102 E85.85019
G1 X99.628 Y168.838 E85.86369
G1 X99.625 Y100.625 E89.26685
G1 X99.654 Y100.382 E89.27906
G1 X99.824 Y100.024 E89.29883
G1 X100.025 Y99.824 E89.31298
G1 X100.177 Y99.73 E89.3219
G1 X100.537 Y99.628 E89.34056
G1 X166.378 Y99.625 E92.62539
G1 X166.602 Y99.688 E92.63699
G1 X166.851 Y99.824 E92.65115
G1 X167.133 Y100.154 E92.67281
G1 X167.22 Y100.378 E92.68479
G1 X167.25 Y100.625 E92.69721
G1 X167.25 Y168.75 E96.09598
G1 X167.213 Y169.022 E96.10967
G1 X167.109 Y169.264 E96.12281
G1 X166.958 Y169.458 E96.13508
G1 X166.764 Y169.609 E96.14734
G1 X166.521 Y169.713 E96.16053
G1 X166.25 Y169.75 E96.17418
G1 X100.625 Y169.75 E99.44822
G1 X100.378 Y169.72 E99.46063
G1 X100.154 Y169.633 E99.47262
G0 F3600 X100.154 Y169.65
G0 X166.558 Y169.65
G0 X166.558 Y169.266
G1 F1350 X166.25 Y169.35 E99.48855
G1 X100.524 Y169.35 E102.76763
G1 X100.342 Y169.28 E102.77736
G1 X100.144 Y169.111 E102.79035
G1 X100.027 Y168.803 E102.80679
G1 X100.025 Y100.515 E106.21369
G1 X100.144 Y100.264 E106.22755
G1 X100.356 Y100.088 E106.24129
G1 X100.572 Y100.027 E106.25249
G1 X166.325 Y100.025 E109.53292
G1 X166.611 Y100.144 E109.54838
G1 X166.78 Y100.342 E109.56136
G1 X166.85 Y100.524 E109.57109
G1 X166.85 Y168.862 E112.98049
G1 X166.766 Y169.058 E112.99113
G1 X166.558 Y169.266 E113.0058
G0 F3600 X166.558 Y169.65
G0 X171.5 Y174
G1 F1350 X171.5 Y21 E120.63901
G1 X23.5 Y21 E128.02276
G1 X23.5 Y174 E135.65596
G1 X171.5 Y174 E143.03971
G0 F3600 X171.9 Y174.4
G1 F1350 X171.9 Y20.6 E150.71282
G1 X23.1 Y20.6 E158.13648
G1 X23.1 Y174.4 E165.80959
G1 X171.9 Y174.4 E173.23326
G0 F3600 X171.63 Y174.13
G0 X94.846 Y169.65
G0 X94.846 Y169.633
G1 F1350 X94.622 Y169.72 E173.24525
G1 X94.375 Y169.75 E173.25766
G1 X28.75 Y169.75 E176.5317
G1 X28.479 Y169.713 E176.54535
G1 X28.236 Y169.609 E176.55854
G1 X28.042 Y169.458 E176.5708
G1 X27.891 Y169.264 E176.58307
G1 X27.787 Y169.021 E176.59625
G1 X27.75 Y168.75 E176.6099
G1 X27.75 Y100.625 E180.00867
G1 X27.78 Y100.378 E180.02108
G1 X27.867 Y100.154 E180.03307
G1 X28.149 Y99.824 E180.05473
G1 X28.398 Y99.688 E180.06888
G1 X28.662 Y99.628 E180.08239
G1 X94.375 Y99.625 E183.36082
G1 X94.618 Y99.654 E183.37303
G1 X94.976 Y99.824 E183.39281
G1 X95.176 Y100.024 E183.40692
G1 X95.346 Y100.382 E183.42669
G1 X95.375 Y100.625 E183.4389
G1 X95.372 Y168.838 E186.84206
G1 X95.312 Y169.102 E186.85557
G1 X95.176 Y169.351 E186.86972
G1 X94.846 Y169.633 E186.89138
G0 F3600 X94.856 Y169.111
G1 F1350 X94.658 Y169.28 E186.90436
G1 X94.476 Y169.35 E186.91409
G1 X28.638 Y169.35 E190.19876
G1 X28.442 Y169.266 E190.2094
G1 X28.234 Y169.058 E190.22408
G1 X28.15 Y168.75 E190.24
G1 X28.15 Y100.524 E193.64381
G1 X28.22 Y100.342 E193.65354
G1 X28.389 Y100.144 E193.66653
G1 X28.697 Y100.027 E193.68297
G1 X94.485 Y100.025 E196.96514
G1 X94.736 Y100.144 E196.979
G1 X94.856 Y100.264 E196.98747
G1 X94.975 Y100.515 E197.00133
G1 X94.973 Y168.803 E200.40823
G1 X94.856 Y169.111 E200.42467
G0 F3600 X95.275 Y169.111
G0 X27.922 Y169.578
G0 X28.578 Y168.853
;TYPE:WALL-OUTER
G1 F1350 X28.552 Y168.785 E200.4283
G1 X28.556 Y100.575 E203.83131
G1 X28.629 Y100.464 E203.83794
G1 X28.732 Y100.425 E203.84343
G1 X94.424 Y100.43 E207.12082
G1 X94.536 Y100.504 E207.12752
G1 X94.57 Y100.576 E207.13149
G1 X94.575 Y168.768 E210.5336
G1 X94.536 Y168.871 E210.5391
G1 X94.41 Y168.948 E210.54646
G1 X28.711 Y168.95 E213.8242
G1 X28.578 Y168.853 E213.83241
G0 F3600 X28.552 Y168.785
G0 X28.552 Y168.657
G0 X27.85 Y168.657
G0 X27.922 Y99.797
G0 X94.496 Y95.275
G0 X94.496 Y94.536
G1 F1350 X94.424 Y94.57 E213.83639
G1 X28.732 Y94.575 E217.11377
G1 X28.629 Y94.536 E217.11927
G1 X28.552 Y94.41 E217.12663
G1 X28.55 Y26.211 E220.5291
G1 X28.647 Y26.078 E220.53731
G1 X28.715 Y26.052 E220.54094
G1 X94.425 Y26.056 E223.81923
G1 X94.536 Y26.129 E223.82585
G1 X94.572 Y26.213 E223.83041
G1 X94.57 Y94.424 E227.23347
G1 X94.496 Y94.536 E227.24017
G0 F3600 X94.424 Y94.57
G0 X94.303 Y94.57
G0 X94.303 Y95.275
G0 X166.371 Y95.275
G0 X166.371 Y94.536
G1 F1350 X166.287 Y94.572 E227.24473
G1 X100.576 Y94.57 E230.52307
G1 X100.464 Y94.495 E230.52979
G1 X100.43 Y94.424 E230.53372
G1 X100.428 Y26.213 E233.93678
G1 X100.464 Y26.129 E233.94134
G1 X100.59 Y26.052 E233.94871
G1 X166.289 Y26.05 E237.22644
G1 X166.392 Y26.108 E237.23234
G1 X166.45 Y26.207 E237.23806
G1 X166.448 Y94.41 E240.64073
G1 X166.371 Y94.536 E240.64809
G0 F3600 X166.287 Y94.572
G0 X166.178 Y94.572
G0 X166.178 Y95.275
G0 X167.078 Y99.797
G0 X167.078 Y169.578
G0 X166.353 Y168.922
G1 F1350 X166.285 Y168.948 E240.65172
G1 X100.575 Y168.944 E243.93001
G1 X100.464 Y168.871 E243.93664
G1 X100.425 Y168.768 E243.94213
G1 X100.43 Y100.576 E247.34424
G1 X100.464 Y100.504 E247.34822
G1 X100.576 Y100.43 E247.35491
G1 X166.287 Y100.428 E250.63325
G1 X166.45 Y100.547 E250.64332
G1 X166.448 Y168.785 E254.04773
G1 X166.353 Y168.922 E254.05604
G0 F3600 X166.285 Y168.948
G0 X166.157 Y168.948
G0 X166.157 Y169.65
G0 X172.03 Y174.53
G0 X172.3 Y174.8
G1 F1350 X172.3 Y20.2 E261.76907
G1 X22.7 Y20.2 E269.23264
G1 X22.7 Y174.8 E276.94567
G1 X172.3 Y174.8 E284.40924
G0 F3600 X172.3 Y174.6
G0 X171.63 Y174.13
G0 X99.797 Y169.578
G0 X95.713 Y100.281
;TYPE:SKIN
G1 F1350 X95.481 Y99.798 E284.43598
G1 X95.17 Y99.5 E284.45746
G1 X94.719 Y99.287 E284.48235
G1 X94.4 Y99.246 E284.49839
G1 X28.632 Y99.249 E287.77957
G1 X28.263 Y99.334 E287.79846
G1 X27.906 Y99.533 E287.81886
G1 X27.723 Y99.701 E287.83125
G1 X27.544 Y99.953 E287.84667
G1 X27.417 Y100.265 E287.86348
G1 X27.371 Y100.597 E287.8802
G1 X27.371 Y168.778 E291.28176
G1 X27.415 Y169.104 E291.29817
G1 X27.553 Y169.436 E291.31611
G1 X27.773 Y169.727 E291.33431
G1 X28.019 Y169.921 E291.34994
G1 X28.35 Y170.071 E291.36807
G1 X28.725 Y170.129 E291.387
G1 X94.401 Y170.129 E294.66359
G1 X94.699 Y170.092 E294.67857
G1 X95.048 Y169.956 E294.69726
G1 X95.293 Y169.78 E294.71231
G1 X95.489 Y169.567 E294.72675
G1 X95.676 Y169.21 E294.74686
G1 X95.75 Y168.873 E294.76407
G1 X95.754 Y100.595 E298.17047
G1 X95.713 Y100.281 E298.18627
G0 F3600 X94.719 Y95.713
G1 F1350 X95.17 Y95.5 E298.21116
G1 X95.489 Y95.19 E298.23335
G1 X95.616 Y94.984 E298.24542
G1 X95.75 Y94.507 E298.27014
G1 X95.755 Y26.239 E301.67605
G1 X95.665 Y25.757 E301.70051
G1 X95.487 Y25.432 E301.71899
G1 X95.265 Y25.194 E301.73523
G1 X95.047 Y25.044 E301.74843
G1 X94.736 Y24.919 E301.76516
G1 X94.401 Y24.871 E301.78204
G1 X28.725 Y24.871 E305.05863
G1 X28.395 Y24.915 E305.07524
G1 X28.063 Y25.053 E305.09318
G1 X27.773 Y25.273 E305.11134
G1 X27.553 Y25.564 E305.12954
G1 X27.414 Y25.903 E305.14782
G1 X27.371 Y26.225 E305.16402
G1 X27.371 Y94.406 E308.56559
G1 X27.407 Y94.698 E308.58027
G1 X27.544 Y95.048 E308.59902
G1 X27.72 Y95.293 E308.61407
G1 X27.933 Y95.489 E308.62851
G1 X28.29 Y95.676 E308.64861
G1 X28.627 Y95.75 E308.66583
G1 X94.4 Y95.754 E311.94726
G1 X94.719 Y95.713 E311.9633
G0 F3600 X100.494 Y95.75
G1 F1350 X166.26 Y95.755 E315.24438
G1 X166.742 Y95.665 E315.26884
G1 X167.079 Y95.481 E315.288
G1 X167.307 Y95.262 E315.30377
G1 X167.456 Y95.048 E315.31678
G1 X167.593 Y94.698 E315.33553
G1 X167.629 Y94.404 E315.35031
G1 X167.629 Y26.22 E318.75202
G1 X167.586 Y25.903 E318.76798
G1 X167.447 Y25.564 E318.78626
G1 X167.227 Y25.273 E318.80446
G1 X166.981 Y25.079 E318.82009
G1 X166.65 Y24.929 E318.83822
G1 X166.275 Y24.871 E318.85716
G1 X100.599 Y24.871 E322.13374
G1 X100.301 Y24.908 E322.14873
G1 X99.952 Y25.044 E322.16741
G1 X99.707 Y25.22 E322.18246
G1 X99.511 Y25.433 E322.1969
G1 X99.335 Y25.759 E322.21539
G1 X99.245 Y26.081 E322.23207
G1 X99.249 Y94.497 E325.64536
G1 X99.384 Y94.984 E325.67057
G1 X99.511 Y95.19 E325.68264
G1 X99.79 Y95.476 E325.70257
G1 X100.015 Y95.615 E325.71577
G1 X100.494 Y95.75 E325.7406
G0 F3600 X167.078 Y99.797
G0 X167.078 Y169.578
G0 X166.605 Y170.085
G1 F1350 X166.937 Y169.947 E325.75854
G1 X167.227 Y169.727 E325.7767
G1 X167.447 Y169.436 E325.7949
G1 X167.585 Y169.104 E325.81283
G1 X167.629 Y168.775 E325.82939
G1 X167.629 Y100.595 E329.23091
G1 X167.583 Y100.265 E329.24753
G1 X167.456 Y99.953 E329.26434
G1 X167.277 Y99.701 E329.27976
G1 X167.055 Y99.505 E329.29453
G1 X166.74 Y99.333 E329.31244
G1 X166.419 Y99.245 E329.32904
G1 X100.504 Y99.249 E332.61756
G1 X100.015 Y99.385 E332.64288
G1 X99.79 Y99.524 E332.65607
G1 X99.519 Y99.798 E332.6753
G1 X99.287 Y100.281 E332.70203
G1 X99.246 Y100.595 E332.71783
G1 X99.249 Y168.868 E336.12398
G1 X99.345 Y169.261 E336.14417
G1 X99.533 Y169.594 E336.16325
G1 X99.701 Y169.777 E336.17564
G1 X99.953 Y169.956 E336.19106
G1 X100.264 Y170.081 E336.20778
G1 X100.599 Y170.129 E336.22467
G1 X166.275 Y170.129 E339.50126
G1 X166.605 Y170.085 E339.51787
G0 F3600 X171.12 Y173.62
G1 F1350 X23.881 Y173.619 E346.86365
G1 X23.881 Y21.381 E354.45883
G1 X171.12 Y21.38 E361.80462
G1 X171.12 Y173.62 E369.3999
G0 F3600 X24.642 Y173.417
G1 F1350 X24.08 Y172.855 E369.43955
G0 F3600 X24.08 Y172.29
G1 F1350 X25.208 Y173.417 E369.5191
G0 F3600 X25.774 Y173.417
G1 F1350 X24.08 Y171.724 E369.63859
G0 F3600 X24.08 Y171.158
G1 F1350 X26.339 Y173.417 E369.79798
G0 F3600 X26.905 Y173.417
G1 F1350 X24.08 Y170.593 E369.99726
G0 F3600 X24.08 Y170.027
G1 F1350 X27.471 Y173.417 E370.23648
G0 F3600 X28.036 Y173.417
G1 F1350 X24.08 Y169.461 E370.51559
G0 F3600 X24.08 Y168.895
G1 F1350 X28.602 Y173.417 E370.83465
G0 F3600 X29.168 Y173.417
G1 F1350 X24.08 Y168.33 E371.1936
G0 F3600 X24.08 Y167.764
G1 F1350 X29.733 Y173.417 E371.59245
G0 F3600 X30.299 Y173.417
G1 F1350 X24.08 Y167.198 E372.03123
G0 F3600 X24.08 Y166.633
G1 F1350 X30.865 Y173.417 E372.50991
G0 F3600 X31.43 Y173.417
G1 F1350 X28.263 Y170.25 E372.73336
G0 F3600 X28.905 Y170.326
G1 F1350 X31.996 Y173.417 E372.95145
G0 F3600 X32.562 Y173.417
G1 F1350 X29.47 Y170.326 E373.16957
G0 F3600 X30.036 Y170.326
G1 F1350 X33.127 Y173.417 E373.38766
G0 F3600 X33.693 Y173.417
G1 F1350 X30.602 Y170.326 E373.60574
G0 F3600 X31.167 Y170.326
G1 F1350 X34.259 Y173.417 E373.82387
G0 F3600 X34.825 Y173.417
G1 F1350 X31.733 Y170.326 E374.04199
G0 F3600 X32.299 Y170.326
G1 F1350 X35.39 Y173.417 E374.26008
G0 F3600 X35.956 Y173.417
G1 F1350 X32.864 Y170.326 E374.4782
G0 F3600 X33.43 Y170.326
G1 F1350 X36.522 Y173.417 E374.69632
G0 F3600 X37.087 Y173.417
G1 F1350 X33.996 Y170.326 E374.91441
G0 F3600 X34.561 Y170.326
G1 F1350 X37.653 Y173.417 E375.13253
G0 F3600 X38.219 Y173.417
G1 F1350 X35.127 Y170.326 E375.35065
G0 F3600 X35.693 Y170.326
G1 F1350 X38.784 Y173.417 E375.56874
G0 F3600 X39.35 Y173.417
G1 F1350 X36.259 Y170.326 E375.78682
G0 F3600 X36.824 Y170.326
G1 F1350 X39.916 Y173.417 E376.00495
